; generated by PrusaSlicer 2.5.0+win64 on 2022-09-24 at 16:04:35 UTC

; 

; external perimeters extrusion width = 0.50mm
; perimeters extrusion width = 0.50mm
; infill extrusion width = 0.50mm
; solid infill extrusion width = 0.50mm
; top infill extrusion width = 0.50mm
; support material extrusion width = 0.50mm
; first layer extrusion width = 0.50mm

M107
M190 S70 ; set bed temperature and wait for it to be reached
M104 S220 ; set temperature
;TYPE:Custom
M220 S100 ;Reset Feedrate
M221 S100 ;Reset Flowrate

G28 X0 Y0 ;Home X and Y
G28 Z0 ;Home Z
M83

G92 E0 ;Reset Extruder
G1 Z2.0 F3000 ;Move Z Axis up
;?????? ????? ??? ??????? ????? ? ???????????? ??????
G1 X0 Y0 Z0 F300.0
G1 E50 
G1 X5 Y5 Z0 F300.0
;Draws a line for nozzle cleaning and flow normalization
;G1 X0 Y20 Z0.28 F5000.0
;G1 X0 Y170.0 Z0.28 F1500.0 E15
;G1 X5 Y170.0 Z0.28 F5000.0
;G1 X5 Y40 Z0.28 F1500.0 E30
;
G92 E0 ;Reset Extruder
G1 X20 Y20 Z2.0 F3000 E-0.5 ;Move Z Axis up

;The code differs from that provided by the manufacturer
;??? ?????????? ?? ???????????????? ??????????????
M109 S220 ; set temperature and wait for it to be reached
G21 ; set units to millimeters
G90 ; use absolute coordinates
M83 ; use relative distances for extrusion
; Filament gcode
M107
;LAYER_CHANGE
;Z:0.2
;HEIGHT:0.2
G1 E-4 F1800
G1 Z.2 F9000
G1 X63.967 Y102.256
G1 E4 F1800
;TYPE:Skirt/Brim
;WIDTH:0.5
G1 F900
G1 X64.051 Y102.221 E.00346
G1 X188.949 Y102.221 E4.74692
G1 X189.033 Y102.256 E.00346
G1 X189.244 Y102.467 E.01133
G1 X189.279 Y102.551 E.00346
G1 X189.279 Y117.449 E.56622
G1 X189.244 Y117.533 E.00346
G1 X189.033 Y117.744 E.01133
G1 X188.949 Y117.779 E.00346
G1 X64.051 Y117.779 E4.74692
G1 X63.967 Y117.744 E.00346
G1 X63.756 Y117.533 E.01133
G1 X63.721 Y117.449 E.00346
G1 X63.721 Y102.551 E.56622
G1 X63.756 Y102.467 E.00346
G1 X63.925 Y102.299 E.00905
G1 E-2 F1800
;WIPE_START
G1 F7200
G1 X64.051 Y102.221 E-.03518
G1 X71.903 Y102.221 E-1.86482
;WIPE_END
G1 E-.1 F1800
G1 X187.125 Y108.047 F9000
G1 E4 F1800
;TYPE:Perimeter
;WIDTH:0.499999
G1 F900
G1 X187.068 Y107.928 E.00502
G1 X186.556 Y107.133 E.03593
G1 X186.012 Y106.569 E.02979
G1 X185.204 Y106.002 E.03753
G1 X184.335 Y105.631 E.03591
G1 X183.568 Y105.47 E.02979
G1 X182.623 Y105.448 E.03592
G1 X181.851 Y105.582 E.02979
G1 X180.965 Y105.911 E.03592
G1 X180.297 Y106.321 E.02979
G1 X179.569 Y106.988 E.03753
G1 X179.02 Y107.757 E.03591
G1 X178.698 Y108.472 E.02978
G1 X178.526 Y109.091 E.02443
G1 X178.47 Y109.433 E.01315
G1 X178.433 Y110.134 E.0267
G1 X178.519 Y110.818 E.02621
G1 X178.635 Y111.347 E.02058
G1 X178.932 Y112.072 E.02977
G1 X179.444 Y112.867 E.03593
G1 X179.988 Y113.431 E.02979
G1 X180.796 Y113.998 E.03753
G1 X181.665 Y114.369 E.03591
G1 X182.432 Y114.53 E.02979
G1 X183.377 Y114.552 E.03592
G1 X184.149 Y114.418 E.02979
G1 X185.035 Y114.089 E.03592
G1 X185.703 Y113.679 E.02979
G1 X186.431 Y113.012 E.03753
G1 X186.82 Y112.5 E.02443
G1 X187.179 Y111.841 E.02852
G1 X187.179 Y115.679 E.14586
G1 X107.73 Y115.679 E3.01956
G1 X107.821 Y115.221 E.01772
G1 X107.821 Y104.779 E.3969
G1 X107.73 Y104.321 E.01772
G1 X187.179 Y104.321 E3.01956
G1 X187.179 Y108.159 E.14587
G1 X187.151 Y108.101 E.00245
G1 X187.539 Y108.714 F9000
;WIDTH:0.566631
G1 F900
G1 X187.564 Y108.967 E.0111
;WIDTH:0.548289
G1 X187.609 Y109.915 E.03988
;WIDTH:0.539316
G1 X187.577 Y110.869 E.03937
;WIDTH:0.56561
G1 X187.538 Y111.245 E.01645
;WIDTH:0.591903
G1 X187.499 Y111.622 E.01728
G1 X187.564 Y111.807 E.00898
;WIDTH:0.54835
G1 X187.636 Y112.289 E.02047
;WIDTH:0.499999
G1 X187.636 Y116.136 E.1462
G1 X106.907 Y116.136 E3.0682
G1 X107.276 Y115.661 E.02286
G1 X107.364 Y115.221 E.01703
G1 X107.364 Y104.779 E.3969
G1 X107.276 Y104.339 E.01703
G1 X106.907 Y103.864 E.02286
G1 X187.636 Y103.864 E3.0682
G1 X187.636 Y105.361 E.05687
G1 X187.636 Y108.204 E.10807
;WIDTH:0.533315
G1 X187.586 Y108.445 E.01003
;WIDTH:0.566631
G1 X187.543 Y108.654 E.00931
G1 X187.063 Y109.079 F9000
G1 F900
G1 X187.127 Y109.649 E.02499
;WIDTH:0.521976
G1 X187.136 Y109.839 E.00758
;WIDTH:0.526562
G1 X187.113 Y110.545 E.02839
;WIDTH:0.554952
G1 X187.047 Y110.992 E.01924
;WIDTH:0.583342
G1 X186.981 Y111.439 E.02031
;WIDTH:0.591903
G1 X186.966 Y111.53 E.00419
G1 X186.768 Y111.785 E.01473
;WIDTH:0.545951
G1 X186.57 Y112.039 E.0135
;WIDTH:0.499999
G1 X186.067 Y112.735 E.03263
G1 X185.407 Y113.331 E.03378
G1 X184.81 Y113.692 E.02651
G1 X184.003 Y113.985 E.03263
G1 X183.315 Y114.099 E.02651
G1 X182.457 Y114.073 E.03264
G1 X181.776 Y113.925 E.02651
G1 X180.988 Y113.583 E.03262
G1 X180.265 Y113.067 E.03379
G1 X179.784 Y112.562 E.0265
G1 X179.324 Y111.836 E.03264
G1 X179.064 Y111.19 E.02649
G1 X178.905 Y110.346 E.03263
G1 X178.927 Y109.457 E.03377
G1 X179.128 Y108.631 E.03233
G1 X179.43 Y107.961 E.02794
G1 X179.933 Y107.265 E.03263
G1 X180.593 Y106.669 E.03378
G1 X181.19 Y106.308 E.02651
G1 X181.997 Y106.015 E.03263
G1 X182.685 Y105.901 E.02651
G1 X183.543 Y105.927 E.03264
G1 X184.224 Y106.075 E.02651
G1 X185.012 Y106.417 E.03262
G1 X185.735 Y106.933 E.03379
G1 X186.216 Y107.438 E.0265
G1 X186.676 Y108.164 E.03264
;WIDTH:0.533315
G1 X186.853 Y108.47 E.01441
;WIDTH:0.566631
G1 X187.029 Y108.776 E.01539
G1 X187.056 Y109.019 E.01064
G1 X186.612 Y109.448 F9000
;WIDTH:0.56595
G1 F900
G1 X186.655 Y109.726 E.01223
;WIDTH:0.521752
G1 X186.661 Y109.839 E.0045
;WIDTH:0.52629
G1 X186.63 Y110.519 E.02734
;WIDTH:0.55439
G1 X186.545 Y110.907 E.01689
;WIDTH:0.58249
G1 X186.461 Y111.295 E.01782
G1 X186.311 Y111.566 E.01389
;WIDTH:0.541245
G1 X186.161 Y111.836 E.01283
;WIDTH:0.499999
G1 X185.703 Y112.458 E.02935
G1 X185.111 Y112.982 E.03004
G1 X184.585 Y113.294 E.02323
G1 X183.857 Y113.552 E.02936
G1 X183.254 Y113.647 E.02323
G1 X182.482 Y113.617 E.02936
G1 X181.886 Y113.481 E.02323
G1 X181.18 Y113.168 E.02935
G1 X180.541 Y112.703 E.03004
G1 X180.124 Y112.256 E.02323
G1 X179.715 Y111.601 E.02936
G1 X179.493 Y111.032 E.02322
G1 X179.356 Y110.272 E.02935
G1 X179.383 Y109.482 E.03003
G1 X179.569 Y108.753 E.02859
G1 X179.839 Y108.164 E.02466
G1 X180.297 Y107.542 E.02935
G1 X180.889 Y107.018 E.03004
G1 X181.415 Y106.706 E.02323
G1 X182.143 Y106.448 E.02936
G1 X182.746 Y106.353 E.02323
G1 X183.518 Y106.383 E.02936
G1 X184.114 Y106.519 E.02323
G1 X184.82 Y106.832 E.02935
G1 X185.459 Y107.297 E.03004
G1 X185.876 Y107.744 E.02323
G1 X186.285 Y108.399 E.02936
;WIDTH:0.532975
G1 X186.411 Y108.678 E.01248
;WIDTH:0.56595
G1 X186.538 Y108.957 E.01332
G1 X186.603 Y109.389 E.01902
G1 X186.196 Y109.839 F9000
;TYPE:External perimeter
;WIDTH:0.499999
G1 F900
G1 X186.161 Y110.493 E.02489
G1 X185.981 Y111.161 E.0263
G1 X185.751 Y111.633 E.01995
G1 X185.339 Y112.182 E.02607
G1 X184.815 Y112.634 E.0263
G1 X184.36 Y112.896 E.01995
G1 X183.712 Y113.119 E.02608
G1 X183.192 Y113.194 E.01995
G1 X182.507 Y113.161 E.02608
G1 X181.996 Y113.038 E.01995
G1 X181.372 Y112.754 E.02607
G1 X180.818 Y112.339 E.0263
G1 X180.464 Y111.951 E.01995
G1 X180.107 Y111.365 E.02608
G1 X179.922 Y110.874 E.01994
G1 X179.807 Y110.198 E.02607
G1 X179.839 Y109.507 E.02629
G1 X180.009 Y108.875 E.02485
G1 X180.249 Y108.367 E.02138
G1 X180.661 Y107.818 E.02607
G1 X181.185 Y107.366 E.0263
G1 X181.64 Y107.104 E.01995
G1 X182.288 Y106.881 E.02608
G1 X182.808 Y106.806 E.01995
G1 X183.493 Y106.839 E.02608
G1 X184.004 Y106.962 E.01995
G1 X184.628 Y107.246 E.02607
G1 X185.182 Y107.661 E.0263
G1 X185.536 Y108.049 E.01995
G1 X185.893 Y108.635 E.02608
G1 X186.078 Y109.126 E.01994
G1 X186.189 Y109.78 E.0252
G1 X186.551 Y110.023 F9000
G1 E-2 F1800
;WIPE_START
G1 F7200
G1 X186.161 Y110.493 E-.1696
G1 X185.981 Y111.161 E-.16435
G1 X185.751 Y111.633 E-.12465
G1 X185.339 Y112.182 E-.1629
G1 X184.815 Y112.634 E-.16434
G1 X184.36 Y112.896 E-.12467
G1 X183.712 Y113.119 E-.16297
G1 X183.192 Y113.194 E-.12465
G1 X182.507 Y113.161 E-.16298
G1 X181.996 Y113.038 E-.12466
G1 X181.372 Y112.754 E-.16291
G1 X180.818 Y112.339 E-.16435
G1 X180.571 Y112.068 E-.08696
;WIPE_END
G1 E-.1 F1800
G1 X171.667 Y107.305 F9000
G1 E4 F1800
;TYPE:Perimeter
G1 F900
G1 X172.068 Y107.928 E.02815
G1 X172.365 Y108.653 E.02977
G1 X172.546 Y109.58 E.03592
G1 X172.565 Y109.926 E.01315
G1 X172.53 Y110.567 E.02442
G1 X172.474 Y110.909 E.01315
G1 X172.302 Y111.528 E.02443
G1 X171.98 Y112.243 E.02978
G1 X171.431 Y113.012 E.03591
G1 X170.703 Y113.679 E.03753
G1 X170.035 Y114.089 E.02979
G1 X169.149 Y114.418 E.03592
G1 X168.377 Y114.552 E.02979
G1 X167.432 Y114.53 E.03592
G1 X166.665 Y114.369 E.02979
G1 X165.796 Y113.998 E.03591
G1 X164.988 Y113.431 E.03753
G1 X164.444 Y112.867 E.02979
G1 X163.932 Y112.072 E.03593
G1 X163.635 Y111.347 E.02977
G1 X163.519 Y110.819 E.02057
G1 X163.433 Y110.134 E.02622
G1 X163.47 Y109.433 E.02669
G1 X163.526 Y109.091 E.01315
G1 X163.698 Y108.472 E.02443
G1 X164.02 Y107.757 E.02978
G1 X164.569 Y106.988 E.03591
G1 X165.297 Y106.321 E.03753
G1 X165.965 Y105.911 E.02979
G1 X166.851 Y105.582 E.03592
G1 X167.623 Y105.448 E.02979
G1 X168.568 Y105.47 E.03592
G1 X169.335 Y105.631 E.02979
G1 X170.204 Y106.002 E.03591
G1 X170.5 Y106.18 E.01315
G1 X171.012 Y106.569 E.02443
G1 X171.556 Y107.133 E.02979
G1 X171.634 Y107.255 E.00549
G1 X171.292 Y107.558 F9000
G1 F900
G1 X171.676 Y108.164 E.02727
G1 X171.936 Y108.81 E.02649
G1 X172.095 Y109.654 E.03263
G1 X172.073 Y110.543 E.03377
G1 X171.872 Y111.369 E.03233
G1 X171.57 Y112.039 E.02794
G1 X171.067 Y112.735 E.03263
G1 X170.407 Y113.331 E.03378
G1 X169.81 Y113.692 E.02651
G1 X169.003 Y113.985 E.03263
G1 X168.315 Y114.099 E.02651
G1 X167.457 Y114.073 E.03264
G1 X166.776 Y113.925 E.02651
G1 X165.988 Y113.583 E.03262
G1 X165.265 Y113.067 E.03379
G1 X164.784 Y112.562 E.0265
G1 X164.324 Y111.836 E.03264
G1 X164.064 Y111.19 E.02649
G1 X163.905 Y110.346 E.03263
G1 X163.927 Y109.457 E.03377
G1 X164.128 Y108.631 E.03233
G1 X164.43 Y107.961 E.02794
G1 X164.933 Y107.265 E.03263
G1 X165.593 Y106.669 E.03378
G1 X166.19 Y106.308 E.02651
G1 X166.997 Y106.015 E.03263
G1 X167.685 Y105.901 E.02651
G1 X168.543 Y105.927 E.03264
G1 X169.224 Y106.075 E.02651
G1 X170.012 Y106.417 E.03262
G1 X170.224 Y106.544 E.00939
G1 X170.735 Y106.933 E.02443
G1 X171.216 Y107.438 E.0265
G1 X171.26 Y107.507 E.00309
G1 X170.915 Y107.806 F9000
G1 F900
G1 X171.285 Y108.399 E.02656
G1 X171.507 Y108.968 E.02322
G1 X171.644 Y109.728 E.02935
G1 X171.617 Y110.518 E.03003
G1 X171.431 Y111.247 E.02859
G1 X171.161 Y111.836 E.02466
G1 X170.703 Y112.458 E.02935
G1 X170.111 Y112.982 E.03004
G1 X169.585 Y113.294 E.02323
G1 X168.857 Y113.552 E.02936
G1 X168.254 Y113.647 E.02323
G1 X167.482 Y113.617 E.02936
G1 X166.886 Y113.481 E.02323
G1 X166.18 Y113.168 E.02935
G1 X165.541 Y112.703 E.03004
G1 X165.124 Y112.256 E.02323
G1 X164.715 Y111.601 E.02936
G1 X164.493 Y111.032 E.02322
G1 X164.356 Y110.272 E.02935
G1 X164.383 Y109.482 E.03003
G1 X164.569 Y108.753 E.02859
G1 X164.839 Y108.164 E.02466
G1 X165.297 Y107.542 E.02935
G1 X165.889 Y107.018 E.03004
G1 X166.415 Y106.706 E.02323
G1 X167.143 Y106.448 E.02936
G1 X167.746 Y106.353 E.02323
G1 X168.518 Y106.383 E.02936
G1 X169.114 Y106.519 E.02323
G1 X169.82 Y106.832 E.02935
G1 X169.947 Y106.908 E.00564
G1 X170.459 Y107.297 E.02443
G1 X170.883 Y107.755 E.02374
G1 X170.536 Y108.049 F9000
;TYPE:External perimeter
G1 F900
G1 X170.893 Y108.635 E.02608
G1 X171.078 Y109.126 E.01994
G1 X171.193 Y109.802 E.02607
G1 X171.161 Y110.493 E.02629
G1 X170.991 Y111.125 E.02485
G1 X170.751 Y111.633 E.02138
G1 X170.339 Y112.182 E.02607
G1 X169.815 Y112.634 E.0263
G1 X169.36 Y112.896 E.01995
G1 X168.712 Y113.119 E.02608
G1 X168.192 Y113.194 E.01995
G1 X167.507 Y113.161 E.02608
G1 X166.996 Y113.038 E.01995
G1 X166.372 Y112.754 E.02607
G1 X165.818 Y112.339 E.0263
G1 X165.464 Y111.951 E.01995
G1 X165.107 Y111.365 E.02608
G1 X164.922 Y110.874 E.01994
G1 X164.807 Y110.198 E.02607
G1 X164.839 Y109.507 E.02629
G1 X165.009 Y108.876 E.02485
G1 X165.249 Y108.367 E.02138
G1 X165.661 Y107.818 E.02607
G1 X166.185 Y107.366 E.0263
G1 X166.64 Y107.104 E.01995
G1 X167.288 Y106.881 E.02608
G1 X167.808 Y106.806 E.01995
G1 X168.493 Y106.839 E.02608
G1 X169.004 Y106.962 E.01995
G1 X169.628 Y107.246 E.02607
G1 X170.182 Y107.661 E.0263
G1 X170.495 Y108.004 E.01767
G1 X170.933 Y107.999 F9000
G1 E-2 F1800
;WIPE_START
G1 F7200
G1 X170.893 Y108.635 E-.17699
G1 X171.078 Y109.126 E-.12463
G1 X171.193 Y109.802 E-.16293
G1 X171.161 Y110.493 E-.16428
G1 X170.991 Y111.125 E-.15528
G1 X170.751 Y111.633 E-.13358
G1 X170.339 Y112.182 E-.1629
G1 X169.815 Y112.634 E-.16434
G1 X169.36 Y112.896 E-.12467
G1 X168.712 Y113.119 E-.16297
G1 X168.192 Y113.194 E-.12465
G1 X167.507 Y113.161 E-.16298
G1 X167.18 Y113.082 E-.07979
;WIPE_END
G1 E-.1 F1800
G1 X155.708 Y113.652 F9000
G1 E4 F1800
;TYPE:Perimeter
G1 F900
G1 X155.072 Y114.068 E.02887
G1 X154.759 Y114.213 E.01315
G1 X154.149 Y114.418 E.02443
G1 X153.377 Y114.552 E.0298
G1 X152.636 Y114.553 E.02817
G1 X151.707 Y114.378 E.03591
G1 X150.796 Y113.998 E.03753
G1 X150.143 Y113.564 E.0298
G1 X149.604 Y113.055 E.02817
G1 X149.05 Y112.29 E.03591
G1 X148.651 Y111.387 E.03752
G1 X148.454 Y110.42 E.03752
G1 X148.435 Y110.074 E.01315
G1 X148.47 Y109.432 E.02443
G1 X148.631 Y108.665 E.0298
G1 X148.905 Y107.976 E.02817
G1 X149.411 Y107.179 E.0359
G1 X150.102 Y106.473 E.03752
G1 X150.928 Y105.932 E.03752
G1 X151.241 Y105.787 E.01315
G1 X151.851 Y105.582 E.02443
G1 X152.623 Y105.448 E.0298
G1 X153.364 Y105.447 E.02817
G1 X154.293 Y105.622 E.03591
G1 X155.204 Y106.002 E.03753
G1 X155.857 Y106.436 E.0298
G1 X156.396 Y106.945 E.02817
G1 X156.95 Y107.71 E.03591
G1 X157.349 Y108.613 E.03752
G1 X157.442 Y108.946 E.01315
G1 X157.546 Y109.58 E.02442
G1 X157.565 Y109.926 E.01315
G1 X157.53 Y110.568 E.02443
G1 X157.369 Y111.335 E.0298
G1 X157.095 Y112.024 E.02817
G1 X156.589 Y112.821 E.0359
G1 X155.898 Y113.527 E.03752
G1 X155.758 Y113.619 E.00637
G1 X155.452 Y113.281 F9000
G1 F900
G1 X154.837 Y113.676 E.02778
G1 X154.003 Y113.985 E.03378
G1 X153.315 Y114.099 E.02652
G1 X152.648 Y114.096 E.02535
G1 X151.806 Y113.932 E.03263
G1 X150.988 Y113.583 E.03379
G1 X150.41 Y113.193 E.02652
G1 X149.927 Y112.732 E.02535
G1 X149.429 Y112.033 E.03263
G1 X149.075 Y111.218 E.03377
G1 X148.905 Y110.346 E.03378
G1 X148.927 Y109.457 E.03378
G1 X149.075 Y108.775 E.02652
G1 X149.325 Y108.157 E.02535
G1 X149.789 Y107.435 E.03262
G1 X150.416 Y106.805 E.03377
G1 X151.163 Y106.324 E.03377
G1 X151.997 Y106.015 E.03378
G1 X152.685 Y105.901 E.02652
G1 X153.352 Y105.904 E.02535
G1 X154.194 Y106.068 E.03263
G1 X155.012 Y106.417 E.03379
G1 X155.59 Y106.807 E.02652
G1 X156.073 Y107.268 E.02535
G1 X156.571 Y107.967 E.03263
G1 X156.925 Y108.782 E.03377
G1 X157.095 Y109.654 E.03378
G1 X157.073 Y110.543 E.03378
G1 X156.925 Y111.225 E.02652
G1 X156.675 Y111.843 E.02535
G1 X156.211 Y112.565 E.03262
G1 X155.584 Y113.195 E.03377
G1 X155.502 Y113.248 E.00371
G1 X155.2 Y112.907 F9000
G1 F900
G1 X154.601 Y113.284 E.02689
G1 X153.857 Y113.552 E.03004
G1 X153.253 Y113.647 E.02324
G1 X152.66 Y113.64 E.02254
G1 X151.904 Y113.486 E.02935
G1 X151.18 Y113.168 E.03004
G1 X150.676 Y112.822 E.02324
G1 X150.251 Y112.409 E.02254
G1 X149.807 Y111.777 E.02935
G1 X149.5 Y111.049 E.03003
G1 X149.356 Y110.272 E.03003
G1 X149.383 Y109.482 E.03004
G1 X149.519 Y108.886 E.02324
G1 X149.745 Y108.337 E.02254
G1 X150.168 Y107.692 E.02935
G1 X150.73 Y107.137 E.03003
G1 X151.399 Y106.716 E.03003
G1 X152.143 Y106.448 E.03004
G1 X152.747 Y106.353 E.02324
G1 X153.34 Y106.36 E.02254
G1 X154.096 Y106.514 E.02935
G1 X154.82 Y106.832 E.03004
G1 X155.324 Y107.178 E.02324
G1 X155.749 Y107.591 E.02254
G1 X156.193 Y108.223 E.02935
G1 X156.5 Y108.951 E.03003
G1 X156.644 Y109.728 E.03003
G1 X156.617 Y110.518 E.03004
G1 X156.481 Y111.114 E.02324
G1 X156.255 Y111.663 E.02254
G1 X155.832 Y112.308 E.02935
G1 X155.251 Y112.875 E.03087
G1 X154.955 Y112.532 F9000
;TYPE:External perimeter
G1 F900
G1 X154.366 Y112.893 E.02629
G1 X153.711 Y113.119 E.0263
G1 X153.192 Y113.194 E.01996
G1 X152.673 Y113.183 E.01973
G1 X152.002 Y113.039 E.02607
G1 X151.372 Y112.753 E.0263
G1 X150.943 Y112.45 E.01996
G1 X150.574 Y112.086 E.01973
G1 X150.185 Y111.52 E.02607
G1 X149.924 Y110.88 E.02629
G1 X149.807 Y110.198 E.02629
G1 X149.839 Y109.507 E.0263
G1 X149.962 Y108.996 E.01996
