; generated by PrusaSlicer 2.5.0+win64 on 2022-09-29 at 07:42:46 UTC

; 

; external perimeters extrusion width = 0.50mm
; perimeters extrusion width = 0.50mm
; infill extrusion width = 0.50mm
; solid infill extrusion width = 0.50mm
; top infill extrusion width = 0.50mm
; support material extrusion width = 0.50mm
; first layer extrusion width = 0.50mm

M107
M190 S70 ; set bed temperature and wait for it to be reached
M104 S220 ; set temperature
;TYPE:Custom
M220 S100 ;Reset Feedrate
M221 S100 ;Reset Flowrate

G28 X0 Y0 ;Home X and Y
G28 Z0 ;Home Z
M83

G92 E0 ;Reset Extruder
G1 Z2.0 F3000 ;Move Z Axis up
;?????? ????? ??? ??????? ????? ? ???????????? ??????
G1 X0 Y0 Z0 F300.0
G1 E50 
G1 X5 Y5 Z0 F300.0
;Draws a line for nozzle cleaning and flow normalization
;G1 X0 Y20 Z0.28 F5000.0
;G1 X0 Y170.0 Z0.28 F1500.0 E15
;G1 X5 Y170.0 Z0.28 F5000.0
;G1 X5 Y40 Z0.28 F1500.0 E30
;
G92 E0 ;Reset Extruder
G1 X20 Y20 Z2.0 F3000 E-0.5 ;Move Z Axis up

;The code differs from that provided by the manufacturer
;??? ?????????? ?? ???????????????? ??????????????
M109 S220 ; set temperature and wait for it to be reached
G21 ; set units to millimeters
G90 ; use absolute coordinates
M83 ; use relative distances for extrusion
; Filament gcode
M107
;LAYER_CHANGE
;Z:0.2
;HEIGHT:0.2
G1 E-4 F1800
G1 Z.2 F9000
G1 X136.77 Y114.68
G1 E4 F1800
;TYPE:Skirt/Brim
;WIDTH:0.5
G1 F900
G1 X137.071 Y114.329 E.01756
G1 X137.469 Y114.015 E.01928
G1 X137.921 Y113.787 E.01924
G1 X138.409 Y113.656 E.01921
G1 X138.854 Y113.623 E.01694
G1 X139.341 Y113.679 E.01866
G1 X139.824 Y113.836 E.01928
G1 X140.228 Y114.06 E.01757
G1 X140.61 Y114.383 E.01903
G1 X140.924 Y114.78 E.01923
G1 X141.151 Y115.233 E.01924
G1 X141.283 Y115.722 E.01924
G1 X141.316 Y116.113 E.01491
G1 X141.268 Y116.611 E.01904
G1 X141.12 Y117.096 E.01925
G1 X140.877 Y117.54 E.01924
G1 X140.555 Y117.922 E.01899
G1 X140.159 Y118.235 E.0192
G1 X139.777 Y118.435 E.01639
G1 X139.293 Y118.581 E.01921
G1 X138.789 Y118.627 E.01924
G1 X138.286 Y118.571 E.01923
G1 X137.81 Y118.418 E.01899
G1 X137.368 Y118.168 E.01928
G1 X137.017 Y117.868 E.01756
G1 X136.703 Y117.47 E.01924
G1 X136.504 Y117.088 E.01639
G1 X136.357 Y116.605 E.01921
G1 X136.311 Y116.101 E.01923
G1 X136.366 Y115.604 E.01899
G1 X136.521 Y115.122 E.01924
G1 X136.741 Y114.732 E.017
G1 E-2 F1800
;WIPE_START
G1 F7200
G1 X137.071 Y114.329 E-.12377
G1 X137.469 Y114.015 E-.12049
G1 X137.921 Y113.787 E-.12025
G1 X138.409 Y113.656 E-.12003
G1 X138.854 Y113.623 E-.10583
G1 X139.341 Y113.679 E-.11658
G1 X139.824 Y113.836 E-.12049
G1 X140.228 Y114.06 E-.10977
G1 X140.61 Y114.383 E-.11891
G1 X140.924 Y114.78 E-.12018
G1 X141.151 Y115.233 E-.12025
G1 X141.283 Y115.722 E-.12025
G1 X141.316 Y116.113 E-.09316
G1 X141.268 Y116.611 E-.11898
G1 X141.12 Y117.096 E-.12029
G1 X140.877 Y117.54 E-.12026
G1 X140.795 Y117.638 E-.03051
;WIPE_END
G1 E-.1 F1800
G1 X129.032 Y115.722 F9000
G1 E4 F1800
G1 F900
G1 X129.065 Y116.113 E.01491
G1 X129.017 Y116.611 E.01904
G1 X128.869 Y117.096 E.01925
G1 X128.626 Y117.54 E.01924
G1 X128.304 Y117.922 E.01899
G1 X127.908 Y118.235 E.0192
G1 X127.526 Y118.435 E.01639
G1 X127.042 Y118.581 E.01921
G1 X126.538 Y118.627 E.01924
G1 X126.035 Y118.571 E.01923
G1 X125.559 Y118.418 E.01899
G1 X125.117 Y118.168 E.01928
G1 X124.766 Y117.868 E.01756
G1 X124.452 Y117.47 E.01924
G1 X124.253 Y117.088 E.01639
G1 X124.106 Y116.605 E.01921
G1 X124.06 Y116.101 E.01923
G1 X124.115 Y115.604 E.01899
G1 X124.27 Y115.122 E.01924
G1 X124.519 Y114.68 E.01928
G1 X124.82 Y114.329 E.01756
G1 X125.218 Y114.015 E.01928
G1 X125.67 Y113.787 E.01924
G1 X126.158 Y113.656 E.01921
G1 X126.603 Y113.623 E.01694
G1 X127.09 Y113.679 E.01866
G1 X127.573 Y113.836 E.01928
G1 X127.977 Y114.06 E.01757
G1 X128.359 Y114.383 E.01903
G1 X128.673 Y114.78 E.01923
G1 X128.9 Y115.233 E.01924
G1 X129.016 Y115.664 E.01696
G1 E-2 F1800
;WIPE_START
G1 F7200
G1 X129.065 Y116.113 E-.10721
G1 X129.017 Y116.611 E-.11898
G1 X128.869 Y117.096 E-.12029
G1 X128.626 Y117.54 E-.12026
G1 X128.304 Y117.922 E-.11868
G1 X127.908 Y118.235 E-.11995
G1 X127.526 Y118.435 E-.10241
G1 X127.042 Y118.581 E-.12003
G1 X126.538 Y118.627 E-.12025
G1 X126.035 Y118.571 E-.12018
G1 X125.559 Y118.418 E-.11867
G1 X125.117 Y118.168 E-.12049
G1 X124.766 Y117.868 E-.10976
G1 X124.452 Y117.47 E-.12026
G1 X124.253 Y117.088 E-.10241
G1 X124.106 Y116.605 E-.12003
G1 X124.091 Y116.436 E-.04014
;WIPE_END
G1 E-.1 F1800
G1 X116.814 Y116.113 F9000
G1 E4 F1800
G1 F900
G1 X116.766 Y116.611 E.01904
G1 X116.618 Y117.096 E.01925
G1 X116.375 Y117.54 E.01924
G1 X116.053 Y117.922 E.01899
G1 X115.657 Y118.235 E.0192
G1 X115.275 Y118.435 E.01639
G1 X114.791 Y118.581 E.01921
G1 X114.287 Y118.627 E.01924
G1 X113.784 Y118.571 E.01923
G1 X113.308 Y118.418 E.01899
G1 X112.866 Y118.168 E.01928
G1 X112.515 Y117.868 E.01756
G1 X112.201 Y117.47 E.01924
G1 X112.002 Y117.088 E.01639
G1 X111.855 Y116.605 E.01921
G1 X111.809 Y116.101 E.01923
G1 X111.864 Y115.604 E.01899
G1 X112.019 Y115.122 E.01924
G1 X112.268 Y114.68 E.01928
G1 X112.569 Y114.329 E.01756
G1 X112.967 Y114.015 E.01928
G1 X113.419 Y113.787 E.01924
G1 X113.907 Y113.656 E.01921
G1 X114.352 Y113.623 E.01694
G1 X114.839 Y113.679 E.01866
G1 X115.322 Y113.836 E.01928
G1 X115.726 Y114.06 E.01757
G1 X116.108 Y114.383 E.01903
G1 X116.422 Y114.78 E.01923
G1 X116.649 Y115.233 E.01924
G1 X116.781 Y115.722 E.01924
G1 X116.809 Y116.053 E.01263
G1 E-2 F1800
;WIPE_START
G1 F7200
G1 X116.766 Y116.611 E-.13302
G1 X116.618 Y117.096 E-.12029
G1 X116.375 Y117.54 E-.12026
G1 X116.053 Y117.922 E-.11868
G1 X115.657 Y118.235 E-.11995
G1 X115.275 Y118.435 E-.10241
G1 X114.791 Y118.581 E-.12003
G1 X114.287 Y118.627 E-.12025
G1 X113.784 Y118.571 E-.12018
G1 X113.308 Y118.418 E-.11867
G1 X112.866 Y118.168 E-.12049
G1 X112.515 Y117.868 E-.10976
G1 X112.201 Y117.47 E-.12026
G1 X112.002 Y117.088 E-.10241
G1 X111.855 Y116.605 E-.12003
G1 X111.809 Y116.101 E-.12017
G1 X111.815 Y116.046 E-.01314
;WIPE_END
G1 E-.1 F1800
G1 X114.674 Y92.776 F9000
G1 E4 F1800
G1 F900
G1 X114.287 Y92.811 E.01479
G1 X113.784 Y92.755 E.01923
G1 X113.308 Y92.601 E.01899
G1 X112.866 Y92.352 E.01928
G1 X112.515 Y92.051 E.01756
G1 X112.201 Y91.654 E.01924
G1 X112.002 Y91.272 E.01639
G1 X111.855 Y90.788 E.01921
G1 X111.809 Y90.284 E.01923
G1 X111.864 Y89.788 E.01899
G1 X112.019 Y89.306 E.01924
G1 X112.268 Y88.864 E.01928
G1 X112.569 Y88.513 E.01756
G1 X112.967 Y88.198 E.01928
G1 X113.419 Y87.971 E.01924
G1 X113.907 Y87.839 E.01921
G1 X114.352 Y87.807 E.01694
G1 X114.839 Y87.863 E.01866
G1 X115.322 Y88.019 E.01928
G1 X115.726 Y88.244 E.01757
G1 X116.108 Y88.567 E.01903
G1 X116.422 Y88.964 E.01923
G1 X116.649 Y89.417 E.01924
G1 X116.781 Y89.905 E.01924
G1 X116.814 Y90.296 E.01491
G1 X116.766 Y90.795 E.01904
G1 X116.618 Y91.279 E.01925
G1 X116.375 Y91.724 E.01924
G1 X116.053 Y92.106 E.01899
G1 X115.657 Y92.419 E.0192
G1 X115.275 Y92.618 E.01639
G1 X114.734 Y92.77 E.02134
G1 E-2 F1800
;WIPE_START
G1 F7200
G1 X114.287 Y92.811 E-.10668
G1 X113.784 Y92.755 E-.12018
G1 X113.308 Y92.601 E-.11867
G1 X112.866 Y92.352 E-.12049
G1 X112.515 Y92.051 E-.10976
G1 X112.201 Y91.654 E-.12026
G1 X112.002 Y91.272 E-.10241
G1 X111.855 Y90.788 E-.12003
G1 X111.809 Y90.284 E-.12017
G1 X111.864 Y89.788 E-.11868
G1 X112.019 Y89.306 E-.12024
G1 X112.268 Y88.864 E-.12049
G1 X112.569 Y88.513 E-.10976
G1 X112.967 Y88.198 E-.12049
G1 X113.419 Y87.971 E-.12025
G1 X113.907 Y87.839 E-.12003
G1 X114.039 Y87.83 E-.0314
;WIPE_END
G1 E-.1 F1800
G1 X124.106 Y90.788 F9000
G1 E4 F1800
G1 F900
G1 X124.06 Y90.284 E.01923
G1 X124.115 Y89.788 E.01899
G1 X124.27 Y89.306 E.01924
G1 X124.519 Y88.864 E.01928
G1 X124.82 Y88.513 E.01756
G1 X125.218 Y88.198 E.01928
G1 X125.67 Y87.971 E.01924
G1 X126.158 Y87.839 E.01921
G1 X126.603 Y87.807 E.01694
G1 X127.09 Y87.863 E.01866
G1 X127.573 Y88.019 E.01928
G1 X127.977 Y88.244 E.01757
G1 X128.359 Y88.567 E.01903
G1 X128.673 Y88.964 E.01923
G1 X128.9 Y89.417 E.01924
G1 X129.032 Y89.905 E.01924
G1 X129.065 Y90.296 E.01491
G1 X129.017 Y90.795 E.01904
G1 X128.869 Y91.279 E.01925
G1 X128.626 Y91.724 E.01924
G1 X128.304 Y92.106 E.01899
G1 X127.908 Y92.419 E.0192
G1 X127.526 Y92.618 E.01639
G1 X127.042 Y92.765 E.01921
G1 X126.538 Y92.811 E.01924
G1 X126.035 Y92.755 E.01923
G1 X125.559 Y92.601 E.01899
G1 X125.117 Y92.352 E.01928
G1 X124.766 Y92.051 E.01756
G1 X124.452 Y91.654 E.01924
G1 X124.253 Y91.272 E.01639
G1 X124.124 Y90.846 E.01693
G1 E-2 F1800
;WIPE_START
G1 F7200
G1 X124.06 Y90.284 E-.13416
G1 X124.115 Y89.788 E-.11868
G1 X124.27 Y89.306 E-.12024
G1 X124.519 Y88.864 E-.12049
G1 X124.82 Y88.513 E-.10976
G1 X125.218 Y88.198 E-.12049
G1 X125.67 Y87.971 E-.12025
G1 X126.158 Y87.839 E-.12003
G1 X126.603 Y87.807 E-.10583
G1 X127.09 Y87.863 E-.11658
G1 X127.573 Y88.019 E-.12049
G1 X127.977 Y88.244 E-.10977
G1 X128.359 Y88.567 E-.11891
G1 X128.673 Y88.964 E-.12018
G1 X128.9 Y89.417 E-.12025
G1 X129.032 Y89.905 E-.12025
G1 X129.033 Y89.921 E-.00363
;WIPE_END
G1 E-.1 F1800
G1 X136.311 Y90.284 F9000
G1 E4 F1800
G1 F900
G1 X136.366 Y89.788 E.01899
G1 X136.521 Y89.306 E.01924
G1 X136.77 Y88.864 E.01928
G1 X137.071 Y88.513 E.01756
G1 X137.469 Y88.198 E.01928
G1 X137.921 Y87.971 E.01924
G1 X138.409 Y87.839 E.01921
G1 X138.854 Y87.807 E.01694
G1 X139.341 Y87.863 E.01866
G1 X139.824 Y88.019 E.01928
G1 X140.228 Y88.244 E.01757
G1 X140.61 Y88.567 E.01903
G1 X140.924 Y88.964 E.01923
G1 X141.151 Y89.417 E.01924
G1 X141.283 Y89.905 E.01924
G1 X141.316 Y90.296 E.01491
G1 X141.268 Y90.795 E.01904
G1 X141.12 Y91.279 E.01925
G1 X140.877 Y91.724 E.01924
G1 X140.555 Y92.106 E.01899
G1 X140.159 Y92.419 E.0192
G1 X139.777 Y92.618 E.01639
G1 X139.293 Y92.765 E.01921
G1 X138.789 Y92.811 E.01924
G1 X138.286 Y92.755 E.01923
G1 X137.81 Y92.601 E.01899
G1 X137.368 Y92.352 E.01928
G1 X137.017 Y92.051 E.01756
G1 X136.703 Y91.654 E.01924
G1 X136.504 Y91.272 E.01639
G1 X136.357 Y90.788 E.01921
G1 X136.317 Y90.344 E.01695
G1 E-2 F1800
;WIPE_START
G1 F7200
G1 X136.366 Y89.788 E-.13268
G1 X136.521 Y89.306 E-.12024
G1 X136.77 Y88.864 E-.12049
G1 X137.071 Y88.513 E-.10976
G1 X137.469 Y88.198 E-.12049
G1 X137.921 Y87.971 E-.12025
G1 X138.409 Y87.839 E-.12003
G1 X138.854 Y87.807 E-.10583
G1 X139.341 Y87.863 E-.11658
G1 X139.824 Y88.019 E-.12049
G1 X140.228 Y88.244 E-.10977
G1 X140.61 Y88.567 E-.11891
G1 X140.924 Y88.964 E-.12018
G1 X141.151 Y89.417 E-.12025
G1 X141.283 Y89.905 E-.12025
G1 X141.316 Y90.296 E-.09316
G1 X141.304 Y90.425 E-.03064
;WIPE_END
G1 E-.1 F1800
G1 X119.685 Y89.131 F9000
G1 E4 F1800
;TYPE:Support material
G1 F900
G1 X119.685 Y112.356 E.88268
G1 X108.813 Y112.356 E.41317
G1 X108.813 Y107.441 E.18677
G1 X106.356 Y107.441 E.09338
G1 X106.356 Y91.656 E.59994
G1 X108.813 Y91.656 E.09338
G1 X108.813 Y90.359 E.04929
G1 X110.895 Y89.677 E.08325
G1 X110.842 Y90.117 E.01684
G1 X110.842 Y90.501 E.01458
G1 X110.904 Y90.993 E.01886
G1 X111 Y91.364 E.01458
G1 X111.171 Y91.796 E.01766
G1 X111.354 Y92.133 E.01458
G1 X111.573 Y92.448 E.01458
G1 X111.906 Y92.817 E.01886
G1 X112.197 Y93.066 E.01458
G1 X112.584 Y93.323 E.01766
G1 X112.926 Y93.496 E.01458
G1 X113.286 Y93.629 E.01458
G1 X113.77 Y93.741 E.01886
G1 X114.151 Y93.78 E.01458
G1 X114.616 Y93.77 E.01766
G1 X114.995 Y93.716 E.01458
G1 X115.367 Y93.62 E.01458
G1 X115.696 Y93.496 E.01338
G1 X116.136 Y93.266 E.01886
G1 X116.426 Y93.066 E.01338
G1 X116.694 Y92.838 E.01338
G1 X116.958 Y92.56 E.01458
G1 X117.235 Y92.187 E.01766
G1 X117.424 Y91.853 E.01458
G1 X117.565 Y91.531 E.01338
G1 X117.679 Y91.164 E.01458
G1 X117.749 Y90.819 E.01338
G1 X117.786 Y90.325 E.01886
G1 X117.77 Y89.973 E.01338
G1 X117.712 Y89.594 E.01458
G1 X117.622 Y89.253 E.01338
G1 X117.464 Y88.848 E.01654
G1 X119.616 Y89.122 E.08248
G1 X118.82 Y112.15 F9000
G1 F900
G1 X118.82 Y89.436 E.86329
G1 X118.075 Y89.341 E.02853
G1 X118.18 Y89.936 E.02299
G1 X118.192 Y90.527 E.02243
G1 X118.114 Y91.112 E.02243
G1 X118.026 Y91.452 E.01336
G1 X117.906 Y91.786 E.01347
G1 X117.906 Y111.944 E.76615
G1 X116.991 Y111.944 E.03474
G1 X116.991 Y93.123 E.71532
G1 X116.549 Y93.487 E.02177
G1 X116.077 Y93.77 E.02091
G1 X116.077 Y111.944 E.69073
G1 X115.163 Y111.944 E.03474
G1 X115.163 Y94.1 E.67819
G1 X114.725 Y94.173 E.01686
G1 X114.249 Y94.194 E.01813
G1 X114.249 Y111.944 E.67462
G1 X113.335 Y111.944 E.03474
G1 X113.335 Y94.07 E.67932
G1 X112.798 Y93.888 E.02154
G1 X112.421 Y93.704 E.01596
G1 X112.421 Y111.944 E.69323
G1 X111.506 Y111.944 E.03474
G1 X111.507 Y92.999 E.72004
G1 X111.225 Y92.671 E.01642
G1 X110.924 Y92.213 E.02083
G1 X110.732 Y91.822 E.01656
G1 X110.592 Y91.436 E.01559
G1 X110.592 Y111.944 E.77944
G1 X109.678 Y111.944 E.03474
G1 X109.678 Y90.509 E.81468
G1 X109.225 Y90.657 E.01813
G1 X109.225 Y92.068 E.0536
G1 X108.764 Y92.068 E.01751
G1 X108.764 Y107.03 E.56867
G1 X107.85 Y107.03 E.03474
G1 X107.85 Y92.068 E.56867
G1 X106.936 Y92.068 E.03474
G1 X106.936 Y107.236 E.57649
G1 E-2 F1800
;WIPE_START
G1 F7200
G1 X106.936 Y99.236 E-1.9
;WIPE_END
G1 E-.1 F1800
G1 X114.08 Y90.429 F9000
G1 E4 F1800
;TYPE:Perimeter
;WIDTH:0.555678
G1 F900
G1 X114.067 Y90.232 E.00843
G1 X114.175 Y90.09 E.00761
G1 X114.337 Y90.053 E.00708
G1 X114.498 Y90.131 E.00763
G1 X114.566 Y90.283 E.00709
G1 X114.543 Y90.427 E.00623
G1 X114.413 Y90.546 E.0075
G1 X114.235 Y90.553 E.00761
G1 X114.127 Y90.467 E.00588
G1 X113.87 Y90.943 F9000
;WIDTH:0.555109
G1 F900
G1 X113.672 Y90.739 E.01208
G1 X113.554 Y90.464 E.01273
G1 X113.554 Y90.153 E.01325
G1 X113.677 Y89.867 E.01325
G1 X113.903 Y89.653 E.01325
G1 X114.161 Y89.554 E.01178
G1 X114.466 Y89.551 E.01298
G1 X114.753 Y89.674 E.01331
G1 X114.977 Y89.913 E.01392
G1 X115.076 Y90.231 E.01421
G1 X115.076 Y90.387 E.00662
G1 X114.973 Y90.711 E.01451
G1 X114.753 Y90.943 E.01362
G1 X114.467 Y91.066 E.01325
G1 X114.156 Y91.066 E.01325
G1 X113.925 Y90.967 E.01071
G1 X113.378 Y91.196 F9000
;WIDTH:0.553971
G1 F900
G1 X113.131 Y90.825 E.01892
G1 X113.037 Y90.438 E.01692
G1 X113.051 Y90.05 E.01652
G1 X113.192 Y89.687 E.01652
G1 X113.425 Y89.376 E.01652
G1 X113.747 Y89.159 E.01652
G1 X114.124 Y89.034 E.01687
G1 X114.57 Y89.048 E.01894
G1 X114.933 Y89.189 E.01656
G1 X115.244 Y89.422 E.01652
G1 X115.491 Y89.792 E.01892
G1 X115.585 Y90.179 E.01692
G1 X115.572 Y90.568 E.01652
G1 X115.405 Y90.989 E.01928
G1 X115.148 Y91.278 E.01642
G1 X114.819 Y91.492 E.01666
G1 X114.441 Y91.583 E.01652
G1 X114.052 Y91.57 E.01652
G1 X113.69 Y91.428 E.01652
G1 X113.427 Y91.231 E.01398
G1 X113.069 Y91.563 F9000
;TYPE:External perimeter
;WIDTH:0.499999
G1 F900
G1 X113.026 Y91.531 E.00206
G1 X112.743 Y91.128 E.0187
G1 X112.574 Y90.666 E.0187
G1 X112.556 Y90.13 E.02037
G1 X112.681 Y89.609 E.02036
G1 X112.972 Y89.159 E.02037
G1 X113.373 Y88.804 E.02037
G1 X113.869 Y88.601 E.02037
G1 X114.318 Y88.535 E.01725
G1 X114.84 Y88.625 E.02011
G1 X115.325 Y88.853 E.02037
G1 X115.707 Y89.229 E.02036
G1 X115.94 Y89.606 E.01688
G1 X116.067 Y90.13 E.02049
G1 X116.085 Y90.309 E.00682
G1 X115.995 Y90.837 E.02037
G1 X115.813 Y91.253 E.01725
G1 X115.461 Y91.648 E.02011
G1 X115.011 Y91.939 E.02037
G1 X114.49 Y92.064 E.02037
G1 X113.954 Y92.046 E.02037
G1 X113.455 Y91.852 E.02037
G1 X113.117 Y91.599 E.01602
G1 X113.073 Y91.509 F9000
G1 E-2 F1800
;WIPE_START
G1 F7200
G1 X113.026 Y91.531 E-.02712
G1 X112.743 Y91.128 E-.11687
G1 X112.574 Y90.666 E-.11688
G1 X112.556 Y90.13 E-.12727
G1 X112.681 Y89.609 E-.12726
G1 X112.972 Y89.159 E-.12726
G1 X113.373 Y88.804 E-.12727
G1 X113.869 Y88.601 E-.12726
G1 X114.318 Y88.535 E-.10781
G1 X114.84 Y88.625 E-.12565
G1 X115.325 Y88.853 E-.12727
G1 X115.707 Y89.229 E-.12726
G1 X115.94 Y89.606 E-.10546
G1 X116.067 Y90.13 E-.12802
G1 X116.085 Y90.309 E-.04261
G1 X115.995 Y90.837 E-.12727
G1 X115.813 Y91.253 E-.10781
G1 X115.803 Y91.264 E-.00364
;WIPE_END
G1 E-.1 F1800
G1 X131.936 Y89.131 F9000
G1 E4 F1800
;TYPE:Support material
;WIDTH:0.5
G1 F900
G1 X131.936 Y112.356 E.88268
G1 X121.064 Y112.356 E.41317
G1 X121.064 Y107.441 E.18677
G1 X118.607 Y107.441 E.09338
G1 X118.607 Y91.656 E.59994
G1 X121.064 Y91.656 E.09338
G1 X121.064 Y90.359 E.04929
G1 X123.146 Y89.677 E.08325
G1 X123.093 Y90.117 E.01684
G1 X123.093 Y90.501 E.01458
G1 X123.155 Y90.993 E.01886
G1 X123.251 Y91.364 E.01458
