; generated by PrusaSlicer 2.5.0+win64 on 2022-09-25 at 11:40:44 UTC

; 

; external perimeters extrusion width = 0.50mm
; perimeters extrusion width = 0.50mm
; infill extrusion width = 0.50mm
; solid infill extrusion width = 0.50mm
; top infill extrusion width = 0.50mm
; support material extrusion width = 0.50mm
; first layer extrusion width = 0.50mm

M107
M190 S70 ; set bed temperature and wait for it to be reached
M104 S220 ; set temperature
;TYPE:Custom
M220 S100 ;Reset Feedrate
M221 S100 ;Reset Flowrate

G28 X0 Y0 ;Home X and Y
G28 Z0 ;Home Z
M83

G92 E0 ;Reset Extruder
G1 Z2.0 F3000 ;Move Z Axis up
;?????? ????? ??? ??????? ????? ? ???????????? ??????
G1 X0 Y0 Z0 F300.0
G1 E50 
G1 X5 Y5 Z0 F300.0
;Draws a line for nozzle cleaning and flow normalization
;G1 X0 Y20 Z0.28 F5000.0
;G1 X0 Y170.0 Z0.28 F1500.0 E15
;G1 X5 Y170.0 Z0.28 F5000.0
;G1 X5 Y40 Z0.28 F1500.0 E30
;
G92 E0 ;Reset Extruder
G1 X20 Y20 Z2.0 F3000 E-0.5 ;Move Z Axis up

;The code differs from that provided by the manufacturer
;??? ?????????? ?? ???????????????? ??????????????
M109 S220 ; set temperature and wait for it to be reached
G21 ; set units to millimeters
G90 ; use absolute coordinates
M83 ; use relative distances for extrusion
; Filament gcode
M107
;LAYER_CHANGE
;Z:0.2
;HEIGHT:0.2
G1 E-4 F1800
G1 Z.2 F9000
G1 X82.787 Y63.57
G1 E4 F1800
;TYPE:Skirt/Brim
;WIDTH:0.5
G1 F900
G1 X83.053 Y63.245 E.01597
G1 X83.335 Y62.951 E.01547
G1 X83.816 Y62.54 E.02406
G1 X84.347 Y62.187 E.02423
G1 X84.917 Y61.9 E.02422
G1 X85.516 Y61.685 E.02422
G1 X86.143 Y61.542 E.02441
G1 X86.799 Y61.476 E.02509
G1 X166.011 Y61.472 E3.01054
G1 X166.441 Y61.49 E.01635
G1 X167.04 Y61.575 E.02301
G1 X167.463 Y61.678 E.01653
G1 X167.866 Y61.812 E.01615
G1 X168.439 Y62.069 E.02386
G1 X168.811 Y62.283 E.01632
G1 X169.166 Y62.526 E.01634
G1 X169.509 Y62.807 E.01684
G1 X169.818 Y63.105 E.01632
G1 X170.21 Y63.566 E.02301
G1 X170.458 Y63.923 E.01652
G1 X170.679 Y64.307 E.01684
G1 X170.862 Y64.696 E.01633
G1 X171.065 Y65.266 E.02301
G1 X171.169 Y65.683 E.01633
G1 X171.239 Y66.107 E.01634
G1 X171.279 Y66.751 E.0245
G1 X171.279 Y99.752 E1.25424
G1 X171.238 Y100.398 E.0246
G1 X171.17 Y100.812 E.01596
G1 X171.073 Y101.207 E.01546
G1 X170.851 Y101.829 E.02509
G1 X170.563 Y102.403 E.02441
G1 X170.21 Y102.933 E.02422
G1 X169.796 Y103.418 E.02422
G1 X169.326 Y103.848 E.02422
G1 X168.808 Y104.219 E.02422
G1 X168.248 Y104.525 E.02422
G1 X167.656 Y104.761 E.02422
G1 X167.04 Y104.925 E.02423
G1 X166.413 Y105.012 E.02406
G1 X165.999 Y105.029 E.01574
G1 X129.779 Y105.029 E1.37662
G1 X129.779 Y158.199 E2.02081
G1 X129.744 Y158.283 E.00346
G1 X129.533 Y158.494 E.01133
G1 X129.449 Y158.529 E.00346
G1 X109.551 Y158.529 E.75625
G1 X109.467 Y158.494 E.00346
G1 X109.256 Y158.283 E.01133
G1 X109.221 Y158.199 E.00346
G1 X109.221 Y105.029 E2.02081
G1 X87.001 Y105.029 E.84453
G1 X86.582 Y105.012 E.01594
G1 X85.955 Y104.924 E.02406
G1 X85.344 Y104.762 E.02402
G1 X84.916 Y104.599 E.01738
G1 X84.347 Y104.313 E.02422
G1 X83.838 Y103.976 E.0232
G1 X83.355 Y103.567 E.02404
G1 X82.922 Y103.101 E.02421
G1 X82.649 Y102.739 E.01721
G1 X82.426 Y102.384 E.01595
G1 X82.229 Y102.007 E.01616
G1 X82.062 Y101.616 E.01616
G1 X81.933 Y101.23 E.01546
G1 X81.788 Y100.585 E.02512
G1 X81.738 Y100.163 E.01615
G1 X81.721 Y99.749 E.01574
G1 X81.721 Y66.748 E1.25424
G1 X81.762 Y66.102 E.0246
G1 X81.83 Y65.688 E.01596
G1 X81.927 Y65.293 E.01546
G1 X82.151 Y64.666 E.02528
G1 X82.437 Y64.097 E.02422
G1 X82.754 Y63.62 E.02177
G1 E-2 F1800
;WIPE_START
G1 F7200
G1 X83.053 Y63.245 E-.11397
G1 X83.335 Y62.951 E-.09667
G1 X83.816 Y62.54 E-.15036
G1 X84.347 Y62.187 E-.15139
G1 X84.917 Y61.9 E-.15138
G1 X85.516 Y61.685 E-.15138
G1 X86.143 Y61.542 E-.15254
G1 X86.799 Y61.476 E-.15677
G1 X90.065 Y61.475 E-.77554
;WIPE_END
G1 E-.1 F1800
G1 X129.091 Y102.949 F9000
G1 E4 F1800
;TYPE:Perimeter
;WIDTH:0.499999
G1 F900
G1 X128.94 Y102.965 E.00577
G1 X128.682 Y103.044 E.01025
G1 X128.262 Y103.293 E.01854
G1 X127.957 Y103.627 E.0172
G1 X127.757 Y104.034 E.01724
G1 X127.679 Y104.523 E.01882
G1 X127.679 Y156.429 E1.97274
G1 X111.321 Y156.429 E.62169
G1 X111.321 Y104.529 E1.97253
G1 X111.294 Y104.236 E.01117
G1 X111.132 Y103.774 E.0186
G1 X110.846 Y103.391 E.01815
G1 X110.448 Y103.103 E.01868
G1 X110.06 Y102.965 E.01565
G1 X109.721 Y102.929 E.01295
G1 X107.571 Y102.929 E.08172
G1 X107.571 Y94.323 E.32708
G1 X107.526 Y93.902 E.01607
G1 X107.443 Y93.651 E.01007
G1 X107.203 Y93.257 E.01751
G1 X106.836 Y92.932 E.01865
G1 X106.485 Y92.763 E.0148
G1 X105.971 Y92.679 E.01976
G1 X102.029 Y92.679 E.14986
G1 X101.658 Y92.722 E.01417
G1 X101.243 Y92.885 E.01695
G1 X100.888 Y93.157 E.01702
G1 X100.637 Y93.489 E.01582
G1 X100.475 Y93.895 E.01659
G1 X100.429 Y94.279 E.01468
G1 X100.429 Y102.929 E.32876
G1 X87.067 Y102.929 E.50784
G1 X86.475 Y102.881 E.02257
G1 X85.928 Y102.733 E.02153
G1 X85.412 Y102.5 E.02151
G1 X84.929 Y102.15 E.02267
G1 X84.551 Y101.77 E.02038
G1 X84.252 Y101.337 E.02002
G1 X84.033 Y100.875 E.01941
G1 X83.895 Y100.401 E.01879
G1 X83.821 Y99.667 E.02802
G1 X83.821 Y67.177 E1.23482
G1 X83.847 Y66.367 E.0308
G1 X83.956 Y65.877 E.01907
G1 X84.171 Y65.319 E.02272
G1 X84.488 Y64.815 E.02262
G1 X84.852 Y64.415 E.02056
G1 X85.378 Y64.022 E.02496
G1 X85.791 Y63.816 E.01755
G1 X86.461 Y63.622 E.0265
G1 X86.91 Y63.575 E.01715
;WIDTH:0.502904
G1 X87.666 Y63.582 E.02892
G1 X88.636 Y63.463 E.03739
;WIDTH:0.454525
G1 X89.439 Y63.431 E.02749
;WIDTH:0.457353
G1 X90.436 Y63.47 E.0344
;WIDTH:0.486954
G1 X91.079 Y63.543 E.02389
;WIDTH:0.499999
G1 X91.917 Y63.575 E.03188
G1 X100.429 Y63.575 E.32349
G1 X100.429 Y71.985 E.31962
G1 X100.452 Y72.493 E.01934
G1 X100.605 Y72.952 E.01837
G1 X100.836 Y73.288 E.01549
G1 X101.198 Y73.589 E.01791
G1 X101.635 Y73.772 E.018
G1 X102.029 Y73.821 E.01508
G1 X105.119 Y73.821 E.11746
G1 X106.222 Y73.802 E.04191
G1 X106.585 Y73.699 E.01435
G1 X106.896 Y73.527 E.01351
G1 X107.225 Y73.216 E.01721
G1 X107.498 Y72.7 E.02217
G1 X107.571 Y72.221 E.0184
G1 X107.571 Y63.575 E.32861
G1 X131.429 Y63.575 E.90674
G1 X131.429 Y71.652 E.30698
G1 X131.437 Y72.385 E.02784
G1 X131.532 Y72.788 E.01575
G1 X131.724 Y73.148 E.01549
G1 X132.002 Y73.448 E.01556
G1 X132.435 Y73.707 E.01917
G1 X133.029 Y73.821 E.02298
G1 X136.459 Y73.821 E.13038
G1 X137.3 Y73.787 E.03199
G1 X137.73 Y73.63 E.0174
G1 X138.095 Y73.361 E.01723
G1 X138.342 Y73.047 E.01518
G1 X138.519 Y72.627 E.01733
G1 X138.571 Y72.221 E.01553
G1 X138.571 Y63.575 E.32861
G1 X146.881 Y63.575 E.31583
G1 X147.868 Y63.55 E.03754
;WIDTH:0.489581
G1 X148.682 Y63.461 E.03041
;WIDTH:0.453521
G1 X149.626 Y63.431 E.03223
;WIDTH:0.457384
G1 X150.437 Y63.47 E.02799
;WIDTH:0.499999
G1 X151.474 Y63.575 E.0396
G1 X161.616 Y63.575 E.38547
;WIDTH:0.502907
G1 X162.666 Y63.582 E.04015
G1 X163.636 Y63.463 E.03739
;WIDTH:0.454524
G1 X164.439 Y63.431 E.02749
;WIDTH:0.457352
G1 X165.436 Y63.47 E.0344
;WIDTH:0.486954
G1 X166.079 Y63.543 E.02389
;WIDTH:0.505096
G1 X166.507 Y63.63 E.01679
;WIDTH:0.523302
G1 X166.987 Y63.794 E.02025
;WIDTH:0.536946
G1 X167.435 Y64.026 E.02075
;WIDTH:0.544096
G1 X167.932 Y64.376 E.0253
;WIDTH:0.546127
G1 X168.291 Y64.728 E.02104
G1 X168.661 Y65.208 E.02537
;WIDTH:0.537996
G1 X168.901 Y65.655 E.0209
;WIDTH:0.52808
G1 X169.126 Y66.28 E.02678
;WIDTH:0.503804
G1 X169.226 Y66.824 E.02119
;WIDTH:0.480956
G1 X169.289 Y67.383 E.02048
;WIDTH:0.455266
G1 X169.322 Y68.137 E.02589
;WIDTH:0.450756
G1 X169.3 Y68.943 E.02733
;WIDTH:0.49107
G1 X169.201 Y69.961 E.03812
;WIDTH:0.499999
G1 X169.179 Y70.604 E.02445
G1 X169.179 Y80.578 E.37907
;WIDTH:0.503609
G1 X169.17 Y81.415 E.03206
G1 X169.289 Y82.383 E.03735
;WIDTH:0.455266
G1 X169.322 Y83.137 E.02589
;WIDTH:0.450756
G1 X169.3 Y83.943 E.02733
;WIDTH:0.491071
G1 X169.201 Y84.961 E.03812
;WIDTH:0.499999
G1 X169.179 Y85.604 E.02445
G1 X169.179 Y99.599 E.5319
G1 X169.153 Y100.133 E.02032
G1 X169.024 Y100.682 E.02143
G1 X168.826 Y101.186 E.02058
G1 X168.539 Y101.658 E.02099
G1 X168.166 Y102.065 E.02099
G1 X167.737 Y102.395 E.02058
G1 X167.245 Y102.672 E.02144
G1 X166.692 Y102.843 E.02199
G1 X166.111 Y102.925 E.02229
G1 X152.117 Y102.926 E.53187
G1 X151.134 Y102.951 E.0374
;WIDTH:0.489979
G1 X150.314 Y103.04 E.03063
;WIDTH:0.453725
G1 X149.364 Y103.07 E.03247
;WIDTH:0.457934
G1 X148.556 Y103.03 E.02793
;WIDTH:0.487223
G1 X147.921 Y102.958 E.02359
;WIDTH:0.499999
G1 X147.088 Y102.927 E.03171
G1 X138.571 Y102.928 E.32368
G1 X138.571 Y94.723 E.31182
G1 X138.557 Y94.064 E.02506
G1 X138.437 Y93.638 E.01681
G1 X138.18 Y93.231 E.01832
G1 X137.837 Y92.933 E.01726
G1 X137.463 Y92.756 E.01573
G1 X136.975 Y92.679 E.01876
G1 X133.27 Y92.679 E.14083
G1 X132.617 Y92.732 E.02489
G1 X132.237 Y92.888 E.01561
G1 X131.913 Y93.132 E.01542
G1 X131.571 Y93.619 E.0226
G1 X131.451 Y94.01 E.01557
G1 X131.429 Y94.279 E.01024
G1 X131.429 Y102.929 E.32875
G1 X129.278 Y102.929 E.08173
G1 X129.15 Y102.942 E.00489
G1 X129.153 Y103.399 F9000
G1 F900
G1 X129.037 Y103.412 E.00446
G1 X128.659 Y103.569 E.01555
G1 X128.357 Y103.853 E.01578
G1 X128.202 Y104.146 E.01259
G1 X128.136 Y104.525 E.0146
G1 X128.136 Y156.886 E1.99005
G1 X110.864 Y156.886 E.65643
G1 X110.864 Y104.529 E1.98991
G1 X110.85 Y104.349 E.00685
G1 X110.729 Y103.99 E.01441
G1 X110.481 Y103.674 E.01525
G1 X110.148 Y103.468 E.01489
G1 X109.721 Y103.386 E.01649
G1 X107.059 Y103.386 E.10118
G1 X107.114 Y103.221 E.00659
G1 X107.113 Y94.217 E.34221
G1 X107.022 Y93.83 E.01511
G1 X106.851 Y93.549 E.01251
G1 X106.589 Y93.317 E.01332
G1 X106.338 Y93.196 E.01057
G1 X105.971 Y93.136 E.01412
G1 X102.623 Y93.136 E.12727
G1 X101.764 Y93.167 E.03266
G1 X101.378 Y93.339 E.01607
G1 X101.141 Y93.559 E.01228
G1 X100.946 Y93.911 E.0153
G1 X100.886 Y94.279 E.01414
G1 X100.886 Y103.221 E.33989
G1 X100.941 Y103.386 E.00659
G1 X87.048 Y103.386 E.52799
G1 X86.406 Y103.334 E.02449
G1 X85.775 Y103.164 E.02485
G1 X85.183 Y102.897 E.02466
G1 X84.633 Y102.498 E.02581
G1 X84.193 Y102.056 E.0237
G1 X83.855 Y101.566 E.02265
G1 X83.604 Y101.038 E.02222
G1 X83.445 Y100.488 E.02177
G1 X83.364 Y99.69 E.03048
G1 X83.364 Y67.177 E1.23569
G1 X83.383 Y66.467 E.02699
G1 X83.47 Y65.892 E.02213
G1 X83.635 Y65.397 E.01982
G1 X83.82 Y64.999 E.01668
G1 X84.089 Y64.577 E.01903
G1 X84.435 Y64.185 E.01986
G1 X84.763 Y63.891 E.01675
G1 X85.183 Y63.603 E.01935
G1 X85.638 Y63.385 E.01916
G1 X86.36 Y63.176 E.02859
G1 X86.91 Y63.118 E.02099
;WIDTH:0.502875
G1 X87.666 Y63.122 E.02891
G1 X88.636 Y63.052 E.0372
;WIDTH:0.45499
G1 X89.439 Y63.032 E.02751
;WIDTH:0.457788
G1 X90.436 Y63.056 E.03442
;WIDTH:0.487087
G1 X91.079 Y63.099 E.0238
;WIDTH:0.499999
G1 X91.917 Y63.118 E.03187
G1 X100.939 Y63.118 E.3429
G1 X100.886 Y63.279 E.00643
G1 X100.886 Y72.221 E.33989
G1 X100.931 Y72.54 E.01223
G1 X101.087 Y72.869 E.01382
G1 X101.329 Y73.125 E.01342
G1 X101.658 Y73.302 E.01419
G1 X102.029 Y73.364 E.01427
G1 X105.971 Y73.364 E.14986
G1 X106.41 Y73.277 E.01698
G1 X106.632 Y73.154 E.00965
G1 X106.867 Y72.932 E.01229
G1 X107.062 Y72.563 E.01584
G1 X107.114 Y72.221 E.01314
G1 X107.114 Y63.279 E.33989
G1 X107.061 Y63.118 E.00643
G1 X131.939 Y63.118 E.94554
G1 X131.886 Y63.279 E.00643
G1 X131.886 Y72.221 E.33989
G1 X131.96 Y72.626 E.01563
G1 X132.097 Y72.883 E.01106
G1 X132.295 Y73.098 E.01111
G1 X132.604 Y73.283 E.01369
G1 X133.029 Y73.364 E.01641
G1 X136.971 Y73.364 E.14986
G1 X137.244 Y73.331 E.01044
G1 X137.606 Y73.171 E.01505
G1 X137.849 Y72.953 E.01241
G1 X138.04 Y72.626 E.01439
G1 X138.114 Y72.221 E.01564
G1 X138.114 Y63.279 E.33989
G1 X138.061 Y63.118 E.00643
G1 X146.881 Y63.118 E.33523
G1 X147.868 Y63.103 E.03753
;WIDTH:0.489687
G1 X148.682 Y63.05 E.0303
;WIDTH:0.453996
G1 X149.626 Y63.032 E.03225
;WIDTH:0.457819
G1 X150.437 Y63.056 E.028
;WIDTH:0.499999
G1 X151.474 Y63.118 E.03947
G1 X161.616 Y63.118 E.38547
;WIDTH:0.502877
G1 X162.666 Y63.122 E.04015
G1 X163.636 Y63.052 E.03721
;WIDTH:0.454989
G1 X164.439 Y63.032 E.02751
;WIDTH:0.457788
G1 X165.436 Y63.056 E.03442
;WIDTH:0.488153
G1 X166.102 Y63.101 E.0247
;WIDTH:0.505044
G1 X166.618 Y63.181 E.02007
;WIDTH:0.523064
G1 X167.193 Y63.36 E.02404
;WIDTH:0.536568
G1 X167.708 Y63.614 E.02357
;WIDTH:0.543645
G1 X168.314 Y64.043 E.03092
;WIDTH:0.545655
G1 X168.699 Y64.434 E.02293
G1 X169.131 Y65.034 E.03093
;WIDTH:0.537608
G1 X169.369 Y65.53 E.02262
;WIDTH:0.527793
G1 X169.585 Y66.243 E.03004
;WIDTH:0.503765
G1 X169.664 Y66.824 E.02247
;WIDTH:0.48115
G1 X169.701 Y67.383 E.02041
;WIDTH:0.455723
G1 X169.721 Y68.137 E.02591
;WIDTH:0.451259
G1 X169.708 Y68.943 E.02736
;WIDTH:0.491161
G1 X169.649 Y69.961 E.03802
;WIDTH:0.499999
G1 X169.636 Y80.578 E.40351
;WIDTH:0.503572
G1 X169.631 Y81.415 E.03206
G1 X169.701 Y82.383 E.03717
;WIDTH:0.455723
G1 X169.721 Y83.137 E.02591
;WIDTH:0.451259
G1 X169.708 Y83.943 E.02736
;WIDTH:0.491161
G1 X169.649 Y84.961 E.03802
;WIDTH:0.499999
G1 X169.629 Y99.827 E.56499
G1 X169.572 Y100.382 E.02122
G1 X169.436 Y100.889 E.01993
G1 X169.235 Y101.39 E.02054
G1 X168.905 Y101.933 E.02414
G1 X168.476 Y102.401 E.02414
G1 X167.996 Y102.771 E.02302
G1 X167.424 Y103.093 E.02494
G1 X166.793 Y103.289 E.02514
G1 X166.135 Y103.382 E.02526
G1 X152.117 Y103.383 E.53274
G1 X151.134 Y103.398 E.03739
;WIDTH:0.490081
G1 X150.314 Y103.451 E.03052
;WIDTH:0.454198
G1 X149.364 Y103.469 E.0325
;WIDTH:0.458364
G1 X148.556 Y103.445 E.02793
;WIDTH:0.487354
G1 X147.922 Y103.403 E.0235
;WIDTH:0.499999
G1 X147.088 Y103.384 E.0317
G1 X138.06 Y103.385 E.34312
G1 X138.114 Y103.221 E.00655
G1 X138.114 Y94.723 E.32298
G1 X138.085 Y94.022 E.02667
G1 X137.951 Y93.691 E.01359
G1 X137.679 Y93.381 E.01568
G1 X137.322 Y93.191 E.01535
G1 X136.974 Y93.136 E.0134
G1 X133.27 Y93.136 E.14079
G1 X132.735 Y93.174 E.02039
G1 X132.463 Y93.285 E.01115
G1 X132.232 Y93.459 E.01101
G1 X131.972 Y93.843 E.0176
G1 X131.886 Y94.279 E.01688
G1 X131.886 Y103.221 E.33989
G1 X131.941 Y103.386 E.00657
G1 X129.213 Y103.393 E.10367
G1 X129.216 Y103.85 F9000
G1 F900
G1 X129.133 Y103.858 E.00315
G1 X128.843 Y103.999 E.01226
G1 X128.661 Y104.23 E.01116
G1 X128.593 Y104.526 E.01156
G1 X128.593 Y157.343 E2.00736
G1 X110.407 Y157.343 E.69118
G1 X110.407 Y104.529 E2.00728
G1 X110.399 Y104.421 E.00411
G1 X110.276 Y104.126 E.01212
G1 X110.033 Y103.918 E.01218
G1 X109.721 Y103.843 E.01217
G1 X106.197 Y103.855 E.13394
G1 X106.52 Y103.633 E.0149
G1 X106.657 Y103.221 E.01648
G1 X106.657 Y94.323 E.33821
G1 X106.628 Y94.082 E.0092
G1 X106.475 Y93.813 E.01177
G1 X106.191 Y93.629 E.01285
G1 X105.971 Y93.593 E.00847
G1 X102.623 Y93.593 E.12727
G1 X101.87 Y93.612 E.02863
G1 X101.586 Y93.755 E.0121
G1 X101.402 Y94 E.01162
G1 X101.343 Y94.279 E.01084
G1 X101.343 Y103.221 E.33989
G1 X101.48 Y103.633 E.01648
G1 X101.754 Y103.754 E.01139
;WIDTH:0.46792
G1 X102.029 Y103.875 E.01059
G1 X101.702 Y103.859 E.01156
;WIDTH:0.499999
G1 X101.375 Y103.843 E.01243
G1 X87.03 Y103.843 E.5452
G1 X86.337 Y103.787 E.02642
G1 X85.65 Y103.605 E.02702
G1 X85.183 Y103.408 E.01928
G1 X84.741 Y103.153 E.01937
G1 X84.337 Y102.847 E.01927
G1 X83.835 Y102.343 E.02703
G1 X83.457 Y101.795 E.02528
G1 X83.175 Y101.201 E.02502
G1 X82.994 Y100.575 E.02475
G1 X82.907 Y99.713 E.03293
G1 X82.907 Y67.177 E1.23656
G1 X82.932 Y66.354 E.03128
G1 X83.026 Y65.777 E.02222
G1 X83.201 Y65.252 E.02104
G1 X83.411 Y64.795 E.01913
G1 X83.725 Y64.298 E.02235
G1 X84.171 Y63.795 E.02553
G1 X84.624 Y63.425 E.02224
G1 X85.132 Y63.118 E.02255
G1 X85.777 Y62.85 E.02655
G1 X86.344 Y62.711 E.02217
G1 X86.91 Y62.661 E.0216
;WIDTH:0.502815
G1 X88.636 Y62.639 E.06602
;WIDTH:0.455919
G1 X89.439 Y62.633 E.02756
;WIDTH:0.45866
G1 X90.436 Y62.64 E.03448
;WIDTH:0.487354
G1 X91.079 Y62.655 E.02376
;WIDTH:0.499999
G1 X100.725 Y62.661 E.36662
G1 X101.803 Y62.646 E.04097
G1 X101.48 Y62.867 E.01488
G1 X101.343 Y63.279 E.01648
G1 X101.343 Y71.35 E.30678
G1 X101.37 Y72.413 E.04039
G1 X101.493 Y72.65 E.01017
G1 X101.74 Y72.844 E.01193
G1 X102.029 Y72.907 E.01121
G1 X105.939 Y72.907 E.14862
G1 X106.268 Y72.84 E.01275
G1 X106.509 Y72.648 E.01171
G1 X106.626 Y72.427 E.0095
G1 X106.657 Y72.221 E.00789
G1 X106.657 Y63.279 E.33989
G1 X106.52 Y62.867 E.01648
G1 X106.246 Y62.747 E.01138
;WIDTH:0.465952
G1 X105.971 Y62.627 E.01053
G1 X106.297 Y62.644 E.01148
;WIDTH:0.499999
