; generated by PrusaSlicer 2.5.0+win64 on 2022-09-25 at 15:02:30 UTC

; 

; external perimeters extrusion width = 0.50mm
; perimeters extrusion width = 0.50mm
; infill extrusion width = 0.50mm
; solid infill extrusion width = 0.50mm
; top infill extrusion width = 0.50mm
; support material extrusion width = 0.50mm
; first layer extrusion width = 0.50mm

M107
M190 S70 ; set bed temperature and wait for it to be reached
M104 S220 ; set temperature
;TYPE:Custom
M220 S100 ;Reset Feedrate
M221 S100 ;Reset Flowrate

G28 X0 Y0 ;Home X and Y
G28 Z0 ;Home Z
M83

G92 E0 ;Reset Extruder
G1 Z2.0 F3000 ;Move Z Axis up
;?????? ????? ??? ??????? ????? ? ???????????? ??????
G1 X0 Y0 Z0 F300.0
G1 E50 
G1 X5 Y5 Z0 F300.0
;Draws a line for nozzle cleaning and flow normalization
;G1 X0 Y20 Z0.28 F5000.0
;G1 X0 Y170.0 Z0.28 F1500.0 E15
;G1 X5 Y170.0 Z0.28 F5000.0
;G1 X5 Y40 Z0.28 F1500.0 E30
;
G92 E0 ;Reset Extruder
G1 X20 Y20 Z2.0 F3000 E-0.5 ;Move Z Axis up

;The code differs from that provided by the manufacturer
;??? ?????????? ?? ???????????????? ??????????????
M109 S220 ; set temperature and wait for it to be reached
G21 ; set units to millimeters
G90 ; use absolute coordinates
M83 ; use relative distances for extrusion
; Filament gcode
M107
;LAYER_CHANGE
;Z:0.2
;HEIGHT:0.2
G1 E-4 F1800
G1 Z.2 F9000
G1 X119.08 Y103.254
G1 E4 F1800
;TYPE:Skirt/Brim
;WIDTH:0.5
G1 F900
G1 X119.477 Y102.842 E.02172
G1 X119.896 Y102.454 E.02172
G1 X120.348 Y102.081 E.02228
G1 X121.067 Y101.571 E.0335
G1 X121.545 Y101.282 E.02123
G1 X122.027 Y101.025 E.02075
G1 X122.849 Y100.66 E.03421
G1 X123.685 Y100.375 E.03357
G1 X124.212 Y100.236 E.02071
G1 X124.774 Y100.122 E.0218
G1 X125.652 Y100.008 E.03363
G1 X126.518 Y99.972 E.03294
G1 X127.067 Y99.988 E.02088
G1 X127.65 Y100.038 E.02224
G1 X128.521 Y100.178 E.03353
G1 X129.065 Y100.306 E.02124
G1 X129.588 Y100.459 E.02071
G1 X130.434 Y100.776 E.03435
G1 X131.228 Y101.157 E.03344
G1 X131.702 Y101.426 E.02073
G1 X132.171 Y101.729 E.02123
G1 X132.888 Y102.27 E.03413
G1 X133.316 Y102.645 E.02164
G1 X133.708 Y103.029 E.02085
G1 X134.294 Y103.691 E.03359
G1 X134.819 Y104.401 E.03358
G1 X135.112 Y104.862 E.02073
G1 X135.384 Y105.347 E.02116
G1 X135.765 Y106.163 E.03422
G1 X135.964 Y106.683 E.02115
G1 X136.13 Y107.202 E.02074
G1 X136.342 Y108.077 E.0342
G1 X136.434 Y108.628 E.02122
G1 X136.496 Y109.194 E.02163
G1 X136.528 Y110.091 E.03414
G1 X136.507 Y110.65 E.02123
G1 X136.457 Y111.192 E.02072
G1 X136.31 Y112.08 E.03421
G1 X136.089 Y112.936 E.03357
G1 X135.915 Y113.453 E.02074
G1 X135.709 Y113.972 E.02124
G1 X135.316 Y114.78 E.03413
G1 X135.031 Y115.272 E.02164
G1 X134.724 Y115.739 E.02123
G1 X134.177 Y116.453 E.03418
G1 X133.814 Y116.861 E.02075
G1 X133.423 Y117.256 E.02114
G1 X132.744 Y117.848 E.03422
G1 X132.299 Y118.182 E.02117
G1 X131.846 Y118.485 E.02072
G1 X131.063 Y118.93 E.03421
G1 X130.26 Y119.297 E.03357
G1 X129.749 Y119.488 E.02074
G1 X129.217 Y119.654 E.02115
G1 X128.343 Y119.858 E.03414
G1 X127.791 Y119.945 E.02123
G1 X127.248 Y120.001 E.02074
G1 X126.349 Y120.028 E.0342
G1 X125.467 Y119.975 E.03357
G1 X124.926 Y119.905 E.02073
G1 X124.377 Y119.802 E.02123
G1 X123.508 Y119.572 E.03415
G1 X122.982 Y119.392 E.02114
G1 X122.476 Y119.186 E.02076
G1 X121.684 Y118.797 E.03355
G1 X120.915 Y118.329 E.03421
G1 X120.47 Y118.014 E.02071
G1 X120.035 Y117.666 E.02118
G1 X119.373 Y117.056 E.03422
G1 X118.993 Y116.65 E.02112
G1 X118.642 Y116.231 E.02077
G1 X118.116 Y115.503 E.03417
G1 X117.822 Y115.027 E.02123
G1 X117.551 Y114.526 E.02165
G1 X117.182 Y113.708 E.03413
G1 X116.99 Y113.183 E.02123
G1 X116.831 Y112.661 E.02076
G1 X116.632 Y111.784 E.03418
G1 X116.513 Y110.908 E.03357
G1 X116.478 Y110.364 E.02072
G1 X116.474 Y109.791 E.0218
G1 X116.531 Y108.909 E.03359
G1 X116.609 Y108.345 E.02162
G1 X116.715 Y107.806 E.02087
G1 X116.947 Y106.95 E.03371
G1 X117.245 Y106.139 E.03286
G1 X117.481 Y105.616 E.02181
G1 X117.74 Y105.119 E.02132
G1 X118.193 Y104.382 E.03285
G1 X118.722 Y103.671 E.0337
G1 X119.041 Y103.299 E.0186
G1 X123.874 Y102.535 F9000
;TYPE:Perimeter
;WIDTH:0.499999
G1 F900
G1 X124.686 Y102.283 E.03232
G1 X125.188 Y102.185 E.01945
G1 X125.911 Y102.099 E.02764
G1 X126.952 Y102.085 E.03957
G1 X127.462 Y102.134 E.01947
G1 X128.154 Y102.251 E.02669
G1 X128.827 Y102.424 E.02641
G1 X129.59 Y102.7 E.03082
G1 X130.187 Y102.985 E.02516
G1 X130.648 Y103.246 E.02014
G1 X131.204 Y103.629 E.02567
G1 X131.602 Y103.935 E.01906
G1 X132.185 Y104.475 E.03022
G1 X132.657 Y105.008 E.02704
G1 X133.044 Y105.53 E.02469
G1 X133.329 Y105.976 E.02013
G1 X133.685 Y106.67 E.02963
G1 X133.897 Y107.158 E.02023
G1 X134.111 Y107.782 E.02508
G1 X134.267 Y108.424 E.0251
G1 X134.354 Y108.92 E.01914
G1 X134.404 Y109.421 E.01914
G1 X134.422 Y110.235 E.03096
G1 X134.372 Y110.936 E.02671
G1 X134.256 Y111.638 E.02704
G1 X134.094 Y112.267 E.02467
G1 X133.927 Y112.77 E.02014
G1 X133.629 Y113.45 E.02821
G1 X133.294 Y114.083 E.02724
G1 X133.005 Y114.532 E.02026
G1 X132.602 Y115.057 E.02517
G1 X132.252 Y115.455 E.02014
G1 X131.773 Y115.91 E.02509
G1 X131.119 Y116.443 E.03209
G1 X130.675 Y116.737 E.02025
G1 X130.042 Y117.089 E.0275
G1 X129.408 Y117.374 E.02645
G1 X128.654 Y117.63 E.03027
G1 X128.012 Y117.78 E.02506
G1 X127.465 Y117.868 E.02103
G1 X126.81 Y117.914 E.02498
G1 X126.309 Y117.922 E.01902
G1 X125.374 Y117.846 E.03568
G1 X124.829 Y117.75 E.02103
G1 X124.191 Y117.582 E.02505
G1 X123.667 Y117.404 E.02103
G1 X123.133 Y117.17 E.02218
G1 X122.366 Y116.755 E.03313
G1 X121.923 Y116.47 E.02004
G1 X121.443 Y116.104 E.02293
G1 X120.698 Y115.398 E.03901
G1 X120.293 Y114.931 E.0235
G1 X119.906 Y114.396 E.0251
G1 X119.637 Y113.97 E.01913
G1 X119.386 Y113.49 E.02061
G1 X119.077 Y112.776 E.02957
G1 X118.858 Y112.11 E.02664
G1 X118.7 Y111.416 E.02702
G1 X118.613 Y110.773 E.02467
G1 X118.577 Y110.245 E.02014
G1 X118.583 Y109.71 E.02031
G1 X118.654 Y108.883 E.03156
G1 X118.76 Y108.285 E.02309
G1 X118.946 Y107.597 E.02706
G1 X119.123 Y107.116 E.01951
G1 X119.352 Y106.574 E.02235
G1 X119.598 Y106.105 E.02014
G1 X119.997 Y105.473 E.02838
G1 X120.604 Y104.702 E.03732
G1 X120.951 Y104.338 E.01909
G1 X121.322 Y103.999 E.01909
G1 X121.913 Y103.544 E.02837
G1 X122.546 Y103.13 E.02872
G1 X123.015 Y102.883 E.02017
G1 X123.817 Y102.552 E.03294
G1 X123.744 Y102.09 F9000
G1 F900
G1 X124.07 Y101.979 E.0131
G1 X124.582 Y101.837 E.02018
G1 X125.129 Y101.732 E.02119
G1 X125.892 Y101.642 E.02918
G1 X126.908 Y101.627 E.03865
G1 X127.447 Y101.669 E.02052
G1 X128.163 Y101.782 E.02756
G1 X128.806 Y101.942 E.02519
G1 X129.335 Y102.109 E.02106
G1 X129.847 Y102.316 E.02099
G1 X130.79 Y102.797 E.04024
G1 X131.239 Y103.083 E.02023
G1 X131.678 Y103.414 E.02092
G1 X132.15 Y103.806 E.0233
G1 X132.516 Y104.16 E.01937
G1 X133.013 Y104.719 E.02842
G1 X133.458 Y105.321 E.02843
G1 X133.728 Y105.753 E.01936
G1 X134.099 Y106.476 E.03089
G1 X134.393 Y107.174 E.02879
G1 X134.551 Y107.659 E.01938
G1 X134.73 Y108.394 E.02877
G1 X134.814 Y108.92 E.02025
G1 X134.869 Y109.652 E.02788
G1 X134.878 Y110.252 E.02281
G1 X134.833 Y110.917 E.02532
G1 X134.756 Y111.42 E.01935
G1 X134.625 Y112.037 E.02399
G1 X134.492 Y112.531 E.01944
G1 X134.259 Y113.172 E.02591
G1 X134.04 Y113.649 E.01996
G1 X133.667 Y114.35 E.03016
G1 X133.378 Y114.797 E.02023
G1 X132.917 Y115.397 E.02878
G1 X132.576 Y115.777 E.01938
G1 X132.074 Y116.254 E.02635
G1 X131.393 Y116.808 E.03334
G1 X130.972 Y117.094 E.01936
G1 X130.322 Y117.464 E.02843
G1 X129.713 Y117.742 E.02545
G1 X129.222 Y117.932 E.01998
G1 X128.695 Y118.09 E.0209
G1 X127.931 Y118.26 E.02977
G1 X127.343 Y118.34 E.02254
G1 X126.283 Y118.379 E.04034
G1 X125.252 Y118.291 E.03933
G1 X124.728 Y118.196 E.02022
G1 X123.997 Y118.003 E.02874
G1 X123.495 Y117.827 E.02022
G1 X122.931 Y117.58 E.0234
G1 X122.129 Y117.146 E.03466
G1 X121.514 Y116.74 E.028
G1 X121.095 Y116.411 E.02023
G1 X120.54 Y115.898 E.02874
G1 X120.178 Y115.507 E.02024
G1 X119.713 Y114.91 E.02876
G1 X119.275 Y114.253 E.03003
G1 X119.018 Y113.786 E.02025
G1 X118.708 Y113.097 E.02874
G1 X118.528 Y112.596 E.02022
G1 X118.342 Y111.9 E.02736
G1 X118.236 Y111.393 E.01971
G1 X118.124 Y110.372 E.03901
G1 X118.117 Y109.84 E.02022
G1 X118.157 Y109.213 E.0239
G1 X118.22 Y108.682 E.02031
G1 X118.315 Y108.181 E.01938
G1 X118.51 Y107.459 E.02844
G1 X118.694 Y106.958 E.02028
G1 X118.936 Y106.386 E.0236
G1 X119.168 Y105.932 E.01936
G1 X119.56 Y105.296 E.02841
G1 X120.006 Y104.696 E.02843
G1 X120.342 Y104.311 E.01939
G1 X120.742 Y103.909 E.02156
G1 X121.243 Y103.471 E.0253
G1 X121.649 Y103.172 E.01917
G1 X122.309 Y102.739 E.02998
G1 X122.758 Y102.497 E.01938
G1 X123.442 Y102.193 E.02844
G1 X123.687 Y102.11 E.00985
G1 X123.596 Y101.658 F9000
G1 F900
G1 X124.017 Y101.514 E.0169
G1 X124.556 Y101.376 E.02114
G1 X125.07 Y101.279 E.0199
G1 X125.873 Y101.185 E.03071
G1 X126.922 Y101.17 E.03987
G1 X127.502 Y101.215 E.02212
G1 X128.254 Y101.334 E.02894
G1 X129.015 Y101.523 E.02981
G1 X129.563 Y101.707 E.02196
G1 X130.044 Y101.903 E.01975
G1 X131.015 Y102.4 E.04146
G1 X131.5 Y102.708 E.02184
G1 X132.053 Y103.124 E.02632
G1 X132.45 Y103.462 E.0198
G1 X132.847 Y103.844 E.02096
G1 X133.368 Y104.431 E.02981
G1 X134.05 Y105.401 E.04504
G1 X134.334 Y105.9 E.02183
G1 X134.627 Y106.527 E.02632
G1 X134.82 Y107.011 E.01979
G1 X134.992 Y107.535 E.02097
G1 X135.178 Y108.303 E.03002
G1 X135.268 Y108.871 E.02187
G1 X135.326 Y109.635 E.02914
G1 X135.335 Y110.269 E.02407
G1 X135.288 Y110.959 E.0263
G1 X135.206 Y111.494 E.02058
G1 X135.068 Y112.152 E.02552
G1 X134.926 Y112.676 E.02067
G1 X134.684 Y113.341 E.02688
G1 X134.451 Y113.849 E.02122
G1 X134.226 Y114.296 E.01905
G1 X133.902 Y114.832 E.02378
G1 X133.593 Y115.267 E.02027
G1 X133.004 Y115.989 E.03543
G1 X132.602 Y116.4 E.02183
G1 X132.08 Y116.855 E.02632
G1 X131.668 Y117.173 E.01981
G1 X131.212 Y117.483 E.02095
G1 X130.53 Y117.871 E.02982
G1 X129.921 Y118.149 E.02545
G1 X129.441 Y118.338 E.01959
G1 X128.894 Y118.513 E.02184
G1 X128.22 Y118.67 E.02632
G1 X127.706 Y118.759 E.01979
G1 X127.158 Y118.818 E.02097
G1 X126.374 Y118.842 E.0298
G1 X125.69 Y118.802 E.02604
G1 X125.193 Y118.744 E.01903
G1 X124.627 Y118.642 E.02182
G1 X123.958 Y118.466 E.02631
G1 X123.463 Y118.303 E.0198
G1 X122.951 Y118.099 E.02097
G1 X122.353 Y117.805 E.02531
G1 X121.891 Y117.537 E.02029
G1 X121.249 Y117.113 E.02924
G1 X120.797 Y116.758 E.02183
G1 X120.218 Y116.223 E.03
G1 X119.828 Y115.8 E.02185
G1 X119.343 Y115.178 E.02998
G1 X119.023 Y114.715 E.02138
G1 X118.654 Y114.074 E.0281
G1 X118.218 Y113.09 E.04092
G1 X118.022 Y112.503 E.02353
G1 X117.783 Y111.454 E.04086
G1 X117.668 Y110.402 E.04024
G1 X117.659 Y109.827 E.02183
G1 X117.704 Y109.137 E.02631
G1 X117.768 Y108.62 E.01979
G1 X117.869 Y108.078 E.02097
G1 X118.012 Y107.547 E.02087
G1 X118.176 Y107.041 E.02023
G1 X118.384 Y106.496 E.02215
G1 X118.657 Y105.923 E.02412
G1 X118.957 Y105.402 E.02287
G1 X119.264 Y104.928 E.02147
G1 X119.911 Y104.105 E.03977
G1 X120.258 Y103.74 E.01914
G1 X120.625 Y103.394 E.01916
G1 X121.066 Y103.025 E.02186
G1 X121.631 Y102.624 E.02632
G1 X122.072 Y102.348 E.01978
G1 X122.558 Y102.086 E.02098
G1 X123.275 Y101.767 E.02982
G1 X123.539 Y101.677 E.01062
G1 X123.448 Y101.225 F9000
;TYPE:External perimeter
G1 F900
G1 X123.884 Y101.076 E.01752
G1 X124.373 Y100.947 E.01922
G1 X124.891 Y100.841 E.0201
G1 X125.705 Y100.735 E.03118
G1 X126.525 Y100.701 E.0312
G1 X127.03 Y100.716 E.01922
G1 X127.557 Y100.761 E.0201
G1 X128.345 Y100.886 E.03031
G1 X129.141 Y101.084 E.03119
G1 X129.644 Y101.248 E.02009
G1 X130.136 Y101.441 E.02011
G1 X130.879 Y101.796 E.03128
G1 X131.318 Y102.046 E.0192
G1 X131.762 Y102.333 E.0201
G1 X132.419 Y102.828 E.03126
G1 X132.817 Y103.176 E.0201
G1 X133.179 Y103.529 E.01921
G1 X133.723 Y104.143 E.03119
G1 X134.212 Y104.803 E.0312
G1 X134.526 Y105.306 E.02255
G1 X134.823 Y105.866 E.02408
G1 X135.13 Y106.542 E.02822
G1 X135.305 Y107.014 E.01913
G1 X135.488 Y107.642 E.02488
G1 X135.645 Y108.323 E.02656
G1 X135.723 Y108.822 E.01917
G1 X135.783 Y109.619 E.0304
G1 X135.795 Y110.193 E.02182
G1 X135.78 Y110.609 E.0158
G1 X135.733 Y111.112 E.01921
G1 X135.599 Y111.922 E.0312
G1 X135.394 Y112.716 E.03119
G1 X135.234 Y113.196 E.01922
G1 X135.038 Y113.687 E.0201
G1 X134.679 Y114.427 E.03126
G1 X134.414 Y114.885 E.02009
G1 X134.124 Y115.326 E.02009
G1 X133.623 Y115.979 E.03128
G1 X133.288 Y116.358 E.01922
G1 X132.915 Y116.733 E.0201
G1 X132.295 Y117.274 E.03126
G1 X131.873 Y117.591 E.0201
G1 X131.452 Y117.872 E.01921
G1 X130.739 Y118.278 E.0312
G1 X129.992 Y118.619 E.03119
G1 X129.519 Y118.797 E.01922
G1 X129.014 Y118.954 E.0201
G1 X128.213 Y119.141 E.03126
G1 X127.691 Y119.224 E.0201
G1 X127.188 Y119.275 E.01922
G1 X126.367 Y119.299 E.03119
G1 X125.548 Y119.251 E.0312
G1 X125.047 Y119.186 E.01922
G1 X124.527 Y119.088 E.0201
G1 X123.732 Y118.879 E.03126
G1 X123.231 Y118.707 E.0201
G1 X122.763 Y118.516 E.01922
G1 X122.027 Y118.154 E.03118
G1 X121.325 Y117.728 E.0312
G1 X120.913 Y117.435 E.01921
G1 X120.5 Y117.105 E.0201
G1 X119.895 Y116.547 E.03126
G1 X119.534 Y116.161 E.02011
G1 X119.209 Y115.774 E.0192
G1 X118.728 Y115.107 E.03127
G1 X118.45 Y114.657 E.02009
G1 X118.198 Y114.192 E.02009
G1 X117.86 Y113.442 E.03126
G1 X117.679 Y112.946 E.0201
G1 X117.532 Y112.461 E.01923
G1 X117.35 Y111.662 E.03117
G1 X117.239 Y110.848 E.0312
G1 X117.206 Y110.344 E.01922
G1 X117.202 Y109.815 E.0201
G1 X117.255 Y108.994 E.03126
G1 X117.327 Y108.47 E.02009
G1 X117.424 Y107.974 E.01921
G1 X117.638 Y107.181 E.0312
G1 X117.921 Y106.411 E.03118
G1 X118.139 Y105.929 E.0201
G1 X118.372 Y105.481 E.01922
G1 X118.802 Y104.782 E.03119
G1 X119.292 Y104.124 E.03119
G1 X119.622 Y103.74 E.01923
G1 X119.991 Y103.358 E.02017
G1 X120.38 Y102.998 E.02016
G1 X120.788 Y102.662 E.02009
G1 X121.459 Y102.186 E.03126
G1 X121.911 Y101.912 E.0201
G1 X122.357 Y101.675 E.01921
G1 X123.108 Y101.341 E.03121
G1 X123.391 Y101.245 E.01139
G1 X123.755 Y101.482 F9000
G1 E-2 F1800
;WIPE_START
G1 F7200
G1 X123.884 Y101.076 E-.12372
G1 X124.373 Y100.947 E-.12009
G1 X124.891 Y100.841 E-.12559
G1 X125.705 Y100.735 E-.19486
G1 X126.525 Y100.701 E-.19498
G1 X127.03 Y100.716 E-.12008
G1 X127.557 Y100.761 E-.12559
G1 X128.345 Y100.886 E-.18942
G1 X129.141 Y101.084 E-.1949
G1 X129.644 Y101.248 E-.12555
G1 X130.136 Y101.441 E-.12564
G1 X130.879 Y101.796 E-.19544
G1 X131.113 Y101.93 E-.06414
;WIPE_END
G1 E-.1 F1800
G1 X123.909 Y106.433 F9000
G1 E4 F1800
;TYPE:Perimeter
G1 F900
G1 X124.057 Y106.316 E.00717
G1 X124.33 Y106.19 E.01142
G1 X124.848 Y106.099 E.01997
G1 X128.138 Y106.099 E.12505
G1 X128.479 Y106.136 E.01305
G1 X128.879 Y106.281 E.01618
G1 X129.287 Y106.579 E.01918
G1 X129.662 Y106.911 E.01905
G1 X130.084 Y107.418 E.02506
G1 X130.424 Y107.978 E.02489
G1 X130.647 Y108.514 E.02208
G1 X130.817 Y109.047 E.02125
G1 X130.89 Y109.65 E.02308
G1 X130.913 Y110.206 E.02117
G1 X130.853 Y110.775 E.02171
G1 X130.703 Y111.317 E.02138
G1 X130.532 Y111.811 E.01988
G1 X130.286 Y112.277 E.02003
G1 X129.839 Y112.875 E.02837
G1 X129.502 Y113.242 E.01895
G1 X129.079 Y113.591 E.02083
G1 X128.518 Y113.931 E.02494
G1 X127.927 Y114.167 E.02419
G1 X127.355 Y114.335 E.02264
G1 X126.818 Y114.409 E.02063
G1 X125.943 Y114.38 E.03325
G1 X125.594 Y114.322 E.01348
G1 X124.992 Y114.15 E.02377
G1 X124.33 Y113.846 E.02769
G1 X123.885 Y113.547 E.02038
G1 X123.436 Y113.187 E.02187
G1 X123.01 Y112.708 E.02437
G1 X122.695 Y112.219 E.02212
G1 X122.448 Y111.769 E.01949
G1 X122.241 Y111.173 E.02399
G1 X122.1 Y110.312 E.03315
G1 X122.083 Y109.94 E.01418
G1 X122.125 Y109.36 E.02207
G1 X122.265 Y108.742 E.02409
G1 X122.366 Y108.45 E.01175
G1 X122.623 Y107.888 E.02349
G1 X122.804 Y107.585 E.01342
G1 X123.183 Y107.087 E.02378
G1 X123.6 Y106.678 E.02221
G1 X123.862 Y106.471 E.0127
G1 X124.175 Y106.802 F9000
G1 F900
G1 X124.287 Y106.711 E.00548
G1 X124.667 Y106.573 E.01534
G1 X125.443 Y106.556 E.0295
G1 X128.138 Y106.556 E.10243
G1 X128.382 Y106.583 E.00932
G1 X128.764 Y106.743 E.01574
G1 X129.232 Y107.139 E.0233
G1 X129.728 Y107.704 E.02861
G1 X130.025 Y108.202 E.02201
G1 X130.213 Y108.657 E.01871
G1 X130.373 Y109.155 E.01988
G1 X130.435 Y109.693 E.02059
G1 X130.456 Y110.185 E.01873
G1 X130.402 Y110.7 E.01967
G1 X130.265 Y111.184 E.01912
